ncols 145
nrows 121
xllcenter 174.30208333
yllcenter -35.79791667
cellsize 0.00416667
NODATA_value -9999
39 47 2 -7 0 -21 -33 -37 -39 -40 -42 -45 -46 -47 -49 -50 -50 -51 -56 -60 -63 -64 -65 -64 -64 -67 -74 -79 -81 -86 -86 -89 -90 -92 -95 -98 -100 -100 -104 -104 -108 -110 -110 -113 -113 -115 -115 -117 -119 -121 -123 -126 -128 -131 -134 -136 -137 -137 -137 -138 -139 -139 -139 -140 -139 -140 -140 -139 -140 -139 -140 -140 -139 -141 -140 -141 -142 -143 -144 -145 -147 -149 -149 -150 -150 -150 -149 -149 -149 -150 -151 -153 -154 -156 -160 -161 -162 -164 -166 -166 -166 -169 -169 -171 -173 -175 -179 -180 -182 -185 -188 -190 -193 -193 -198 -200 -202 -205 -209 -213 -217 -221 -225 -230 -235 -240 -244 -244 -247 -250 -251 -254 -258 -263 -269 -274 -280 -285 -289 -291 -291 -292 -292 -296 -300
31 44 33 -2 -3 -15 -29 -33 -37 -39 -41 -43 -45 -46 -47 -47 -47 -49 -52 -54 -59 -61 -59 -61 -62 -68 -71 -79 -80 -85 -85 -88 -89 -91 -92 -96 -98 -100 -101 -103 -103 -107 -110 -112 -112 -113 -114 -116 -118 -119 -122 -124 -126 -130 -132 -135 -136 -136 -137 -138 -138 -138 -139 -138 -139 -139 -138 -138 -139 -139 -138 -138 -139 -140 -140 -139 -141 -142 -144 -144 -146 -147 -149 -149 -150 -150 -149 -149 -149 -149 -150 -151 -152 -154 -156 -159 -161 -163 -164 -164 -165 -166 -169 -169 -171 -173 -175 -179 -179 -181 -184 -188 -190 -190 -193 -196 -199 -202 -205 -208 -212 -216 -221 -226 -231 -236 -240 -240 -244 -248 -250 -251 -254 -258 -263 -269 -274 -280 -284 -287 -287 -290 -292 -295 -299
30 41 8 -1 -9 -15 -4 -19 -28 -30 -34 -38 -39 -40 -41 -42 -42 -44 -44 -41 -44 -49 -49 -54 -61 -65 -69 -72 -78 -81 -81 -83 -85 -89 -91 -93 -95 -96 -98 -100 -102 -103 -109 -110 -110 -110 -112 -114 -115 -118 -120 -122 -124 -129 -131 -133 -135 -135 -137 -138 -133 -137 -139 -137 -138 -137 -138 -137 -138 -137 -138 -138 -137 -138 -138 -138 -139 -140 -141 -141 -144 -144 -146 -148 -149 -149 -150 -149 -148 -150 -148 -149 -149 -150 -151 -154 -158 -159 -161 -161 -162 -163 -164 -166 -167 -168 -170 -173 -175 -176 -178 -181 -184 -184 -188 -190 -191 -195 -199 -202 -205 -208 -212 -217 -221 -226 -231 -231 -236 -240 -244 -247 -249 -250 -253 -258 -263 -268 -273 -278 -278 -282 -287 -291 -295
31 21 30 31 29 -17 -1 -13 -20 -26 -30 -32 -34 -35 -35 -38 -38 -39 -38 -36 -41 -42 -50 -54 -57 -63 -67 -71 -76 -78 -78 -83 -84 -86 -89 -91 -92 -93 -96 -100 -101 -104 -106 -109 -109 -109 -110 -111 -114 -117 -119 -122 -124 -128 -129 -132 -135 -135 -134 -135 -135 -137 -137 -137 -136 -137 -137 -137 -137 -137 -136 -136 -137 -137 -137 -137 -138 -139 -139 -140 -141 -145 -145 -146 -149 -149 -149 -149 -149 -148 -148 -149 -148 -149 -150 -151 -154 -159 -159 -159 -160 -161 -163 -165 -165 -167 -168 -170 -172 -174 -176 -178 -181 -181 -183 -186 -189 -191 -195 -199 -202 -204 -208 -212 -216 -221 -226 -226 -231 -235 -240 -243 -247 -249 -251 -254 -258 -263 -268 -273 -273 -278 -282 -287 -291
17 13 15 14 22 -18 0 -7 -16 -21 -25 -28 -28 -30 -30 -30 -30 -30 -18 -20 -33 -36 -48 -53 -58 -64 -66 -69 -74 -78 -78 -80 -82 -85 -85 -88 -90 -92 -93 -99 -100 -100 -103 -105 -105 -107 -109 -110 -111 -116 -119 -123 -125 -127 -130 -132 -131 -131 -134 -135 -135 -135 -135 -136 -135 -136 -136 -136 -136 -136 -136 -136 -135 -137 -136 -137 -137 -138 -138 -140 -140 -141 -142 -144 -146 -146 -149 -149 -149 -149 -148 -148 -148 -149 -150 -150 -152 -154 -158 -158 -158 -160 -161 -163 -164 -165 -167 -168 -170 -172 -174 -177 -178 -178 -181 -182 -188 -189 -191 -194 -198 -202 -204 -207 -211 -216 -221 -221 -226 -230 -235 -239 -243 -247 -250 -252 -255 -259 -263 -268 -268 -273 -278 -282 -287
10 12 21 20 27 30 -10 -11 -1 -17 -22 -24 -13 -19 -21 -23 -23 -6 -30 -7 -28 -39 -49 -54 -59 -62 -65 -70 -72 -75 -75 -79 -81 -82 -83 -85 -88 -90 -92 -94 -97 -99 -100 -103 -103 -105 -106 -110 -112 -114 -119 -121 -125 -127 -128 -130 -130 -130 -129 -132 -134 -134 -134 -135 -135 -135 -136 -135 -136 -135 -136 -136 -136 -135 -136 -136 -137 -137 -138 -138 -139 -140 -141 -141 -145 -145 -149 -149 -149 -149 -147 -148 -148 -149 -149 -149 -150 -152 -153 -153 -156 -159 -160 -161 -163 -164 -165 -166 -169 -170 -173 -175 -176 -176 -179 -181 -182 -187 -189 -191 -195 -198 -201 -204 -207 -211 -216 -216 -221 -225 -230 -235 -240 -244 -248 -250 -252 -255 -259 -263 -263 -268 -273 -278 -282
22 9 27 40 38 40 42 1 1 -1 -3 -5 -3 11 -2 -1 -9 -16 18 -17 -32 -41 -50 -55 -59 -61 -64 -65 -71 -74 -74 -76 -79 -80 -82 -84 -86 -89 -91 -92 -94 -97 -100 -101 -101 -104 -106 -109 -112 -116 -119 -121 -122 -124 -124 -125 -129 -129 -130 -133 -133 -134 -134 -134 -135 -134 -134 -135 -135 -135 -135 -135 -135 -135 -135 -136 -135 -137 -136 -138 -137 -139 -139 -141 -142 -142 -146 -148 -149 -149 -147 -147 -147 -147 -149 -149 -149 -150 -152 -152 -153 -156 -159 -159 -160 -162 -163 -165 -166 -169 -170 -172 -175 -175 -177 -179 -181 -183 -186 -188 -192 -195 -198 -202 -204 -207 -212 -212 -216 -221 -225 -230 -236 -241 -246 -249 -251 -253 -255 -259 -259 -263 -268 -273 -277
27 8 20 28 34 28 35 52 42 18 65 25 27 27 18 8 -2 47 -1 -19 -32 -42 -49 -55 -55 -59 -63 -66 -69 -71 -71 -75 -77 -79 -81 -83 -85 -87 -89 -91 -93 -95 -99 -100 -100 -101 -104 -109 -112 -115 -118 -119 -121 -123 -120 -120 -123 -123 -126 -129 -131 -133 -133 -133 -133 -134 -134 -134 -134 -134 -135 -135 -134 -135 -135 -134 -135 -136 -136 -136 -137 -136 -138 -139 -140 -140 -142 -147 -147 -148 -148 -147 -147 -149 -148 -149 -149 -151 -152 -152 -153 -153 -156 -159 -159 -161 -162 -163 -165 -166 -169 -170 -173 -173 -174 -177 -179 -181 -183 -186 -188 -192 -195 -199 -202 -205 -208 -208 -212 -216 -221 -226 -231 -237 -242 -247 -249 -251 -252 -255 -255 -258 -263 -268 -273
18 11 9 18 18 24 36 37 40 38 34 34 41 49 35 34 39 19 -5 -20 -35 -43 -48 -53 -55 -59 -63 -65 -69 -71 -71 -73 -75 -76 -79 -81 -84 -85 -88 -90 -92 -94 -96 -98 -98 -101 -104 -109 -112 -114 -116 -119 -120 -121 -119 -119 -121 -121 -123 -129 -129 -130 -131 -132 -132 -133 -133 -133 -133 -134 -133 -133 -134 -134 -134 -134 -134 -134 -135 -135 -135 -137 -137 -138 -139 -139 -141 -144 -148 -147 -148 -147 -146 -147 -149 -149 -149 -150 -151 -151 -152 -154 -153 -155 -157 -159 -161 -162 -164 -165 -166 -169 -170 -170 -173 -174 -177 -179 -180 -183 -186 -189 -192 -197 -198 -201 -205 -205 -208 -212 -216 -221 -226 -232 -238 -243 -246 -249 -250 -252 -252 -254 -258 -263 -268
34 29 10 12 0 29 35 18 19 40 45 38 24 18 6 9 11 -10 -15 -29 -30 -40 -48 -51 -57 -59 -60 -64 -65 -67 -67 -71 -74 -75 -77 -80 -82 -84 -86 -89 -90 -93 -95 -96 -96 -101 -104 -109 -110 -111 -112 -116 -119 -120 -121 -120 -121 -121 -123 -126 -128 -130 -131 -131 -131 -132 -132 -133 -133 -133 -133 -133 -133 -133 -133 -134 -134 -134 -134 -135 -135 -136 -136 -136 -138 -138 -140 -143 -144 -149 -147 -147 -146 -147 -148 -148 -148 -150 -151 -151 -152 -153 -154 -153 -154 -156 -158 -161 -162 -164 -164 -165 -169 -169 -170 -173 -176 -178 -179 -180 -183 -188 -189 -192 -197 -199 -202 -202 -206 -208 -212 -217 -222 -227 -232 -238 -242 -246 -249 -250 -250 -251 -255 -259 -263
30 32 12 11 10 17 23 18 0 39 25 16 11 10 -5 4 -1 -9 -6 -14 -28 -35 -35 -35 -54 -57 -58 -61 -64 -67 -67 -67 -70 -72 -74 -76 -80 -82 -84 -86 -88 -90 -92 -95 -95 -100 -103 -102 -105 -105 -109 -112 -113 -114 -119 -120 -121 -121 -123 -125 -126 -128 -128 -130 -130 -130 -131 -131 -131 -132 -132 -132 -132 -131 -132 -132 -133 -133 -133 -133 -133 -134 -134 -135 -135 -135 -138 -139 -141 -142 -145 -148 -146 -145 -144 -146 -147 -149 -149 -149 -151 -152 -155 -155 -154 -153 -154 -155 -159 -160 -159 -162 -163 -163 -165 -169 -173 -174 -175 -177 -178 -181 -184 -188 -190 -192 -197 -197 -199 -203 -206 -209 -213 -217 -222 -227 -231 -236 -241 -245 -245 -249 -251 -252 -255
32 42 34 17 6 2 13 -1 -2 35 24 8 2 -5 -1 0 -1 -3 -14 -8 -26 -32 -42 -45 -53 -57 -60 -61 -64 -65 -65 -65 -68 -70 -72 -75 -77 -80 -82 -85 -87 -90 -93 -95 -95 -99 -99 -100 -103 -105 -106 -109 -112 -113 -117 -121 -121 -121 -121 -124 -125 -126 -127 -128 -129 -129 -130 -130 -131 -131 -131 -131 -131 -132 -131 -132 -132 -132 -132 -133 -133 -133 -134 -134 -135 -135 -136 -138 -139 -141 -142 -145 -145 -145 -145 -144 -146 -146 -147 -147 -149 -151 -152 -155 -155 -155 -155 -155 -156 -159 -159 -160 -162 -162 -163 -166 -169 -173 -174 -175 -177 -179 -181 -184 -188 -190 -193 -193 -198 -199 -204 -207 -210 -213 -217 -221 -226 -231 -236 -241 -241 -246 -249 -250 -252
60 55 35 28 28 20 0 -2 -2 36 22 7 6 -6 -2 1 3 3 -1 -7 -26 -29 -39 -47 -49 -56 -59 -61 -61 -63 -63 -64 -66 -69 -71 -74 -76 -80 -82 -83 -86 -89 -92 -95 -95 -95 -97 -98 -101 -103 -105 -109 -111 -113 -114 -118 -120 -120 -121 -122 -123 -126 -127 -127 -128 -128 -129 -130 -130 -130 -130 -130 -131 -131 -131 -130 -132 -131 -132 -132 -132 -132 -133 -133 -134 -134 -135 -136 -138 -140 -141 -142 -145 -144 -145 -144 -144 -146 -146 -146 -149 -150 -151 -153 -155 -155 -154 -155 -154 -156 -158 -159 -161 -161 -162 -163 -166 -169 -173 -174 -175 -178 -179 -182 -185 -189 -190 -190 -193 -198 -200 -203 -208 -210 -213 -217 -221 -226 -231 -236 -236 -241 -246 -249 -250
53 45 37 32 20 19 23 -1 -3 24 -2 -4 0 14 28 36 48 52 22 -3 -22 -30 -38 -42 -51 -55 -57 -59 -60 -61 -61 -63 -64 -67 -70 -72 -75 -78 -81 -83 -86 -88 -90 -91 -91 -93 -96 -99 -100 -101 -103 -105 -109 -113 -112 -114 -119 -119 -121 -123 -123 -124 -127 -127 -127 -127 -128 -129 -129 -130 -130 -130 -130 -130 -130 -131 -130 -131 -131 -131 -131 -132 -132 -133 -132 -132 -134 -134 -135 -137 -139 -141 -143 -144 -144 -144 -143 -144 -146 -146 -147 -148 -151 -152 -154 -156 -155 -155 -155 -154 -156 -159 -159 -159 -161 -162 -164 -169 -171 -173 -174 -175 -178 -179 -182 -184 -189 -189 -191 -194 -198 -201 -204 -208 -211 -214 -218 -221 -226 -232 -232 -237 -242 -245 -248
43 26 16 8 6 6 18 -1 -3 -2 -5 -5 -2 -2 18 40 76 124 95 10 -15 -29 -36 -38 -49 -52 -55 -57 -58 -59 -59 -61 -63 -65 -68 -71 -73 -76 -80 -82 -85 -88 -90 -90 -90 -92 -94 -99 -100 -102 -101 -104 -107 -109 -111 -113 -116 -116 -119 -119 -122 -123 -126 -127 -126 -127 -127 -128 -129 -129 -129 -129 -130 -130 -130 -130 -130 -130 -131 -131 -131 -131 -132 -132 -133 -133 -132 -134 -134 -135 -136 -140 -142 -143 -143 -143 -144 -144 -144 -144 -146 -146 -149 -152 -153 -155 -156 -155 -154 -154 -155 -156 -159 -159 -159 -160 -162 -164 -169 -172 -173 -174 -175 -179 -180 -183 -186 -186 -189 -192 -195 -199 -202 -205 -209 -212 -215 -217 -222 -227 -227 -232 -237 -241 -245
58 47 30 18 15 11 7 28 -4 -3 -5 -6 -5 -2 9 31 56 112 111 47 -8 -29 -38 -43 -50 -51 -54 -55 -56 -58 -58 -60 -61 -63 -66 -69 -72 -75 -79 -82 -83 -85 -87 -89 -89 -90 -92 -95 -99 -99 -101 -102 -104 -109 -109 -110 -114 -114 -116 -119 -121 -124 -124 -126 -125 -126 -126 -127 -128 -128 -128 -128 -129 -129 -130 -130 -130 -130 -130 -130 -130 -131 -130 -131 -131 -131 -132 -132 -133 -133 -135 -136 -140 -142 -142 -143 -142 -144 -144 -144 -144 -145 -149 -150 -152 -153 -156 -156 -155 -155 -155 -156 -157 -157 -159 -159 -161 -162 -165 -169 -172 -173 -175 -176 -179 -181 -183 -183 -187 -190 -192 -196 -199 -202 -206 -209 -213 -214 -219 -224 -224 -228 -233 -237 -241
32 28 24 14 25 27 40 40 30 -9 -3 -7 -5 -2 13 39 87 100 59 28 -14 -31 -38 -43 -47 -50 -51 -53 -54 -56 -56 -58 -60 -62 -65 -67 -70 -73 -76 -80 -82 -83 -84 -88 -88 -89 -90 -94 -96 -99 -101 -103 -105 -106 -109 -111 -112 -112 -117 -119 -120 -122 -123 -124 -124 -124 -125 -126 -127 -127 -128 -128 -128 -129 -129 -128 -129 -129 -130 -129 -130 -130 -130 -130 -131 -131 -131 -132 -132 -133 -133 -135 -136 -140 -142 -141 -141 -142 -143 -143 -144 -145 -146 -149 -151 -153 -155 -156 -155 -155 -155 -154 -155 -155 -157 -159 -160 -161 -163 -168 -171 -171 -173 -175 -176 -178 -181 -181 -184 -188 -190 -193 -198 -201 -203 -207 -210 -214 -220 -221 -221 -224 -229 -233 -236
45 37 21 22 44 41 37 29 18 15 -4 -7 -5 -1 20 37 73 50 14 0 -28 -34 -39 -41 -44 -46 -48 -50 -50 -52 -52 -54 -56 -59 -61 -65 -69 -71 -74 -77 -79 -81 -82 -85 -85 -89 -89 -91 -94 -98 -99 -101 -103 -104 -109 -109 -110 -110 -112 -112 -116 -118 -120 -121 -121 -123 -123 -124 -125 -126 -126 -126 -126 -127 -128 -128 -128 -128 -129 -129 -129 -129 -129 -129 -130 -130 -130 -130 -131 -131 -131 -132 -133 -135 -137 -140 -139 -140 -139 -139 -140 -142 -144 -145 -149 -151 -153 -154 -156 -155 -155 -154 -155 -155 -155 -156 -158 -158 -160 -161 -168 -170 -171 -172 -173 -176 -178 -178 -180 -182 -185 -189 -195 -197 -200 -204 -208 -212 -214 -217 -217 -220 -222 -224 -228
69 32 20 31 46 43 30 36 26 11 -8 -5 -6 -3 40 60 55 43 2 -12 -28 -33 -38 -40 -42 -43 -45 -48 -50 -50 -50 -52 -54 -57 -59 -63 -66 -70 -72 -74 -75 -79 -80 -81 -81 -85 -89 -91 -93 -94 -97 -99 -100 -102 -104 -107 -109 -109 -109 -114 -113 -118 -117 -119 -120 -121 -123 -123 -124 -124 -125 -125 -126 -126 -127 -127 -128 -128 -128 -128 -128 -128 -129 -128 -129 -129 -129 -130 -130 -131 -131 -131 -132 -133 -134 -136 -140 -139 -140 -140 -139 -141 -141 -144 -146 -149 -152 -154 -155 -155 -154 -154 -154 -154 -154 -156 -157 -159 -158 -161 -162 -169 -169 -169 -172 -174 -176 -176 -178 -180 -184 -188 -190 -194 -199 -202 -205 -209 -210 -214 -214 -218 -219 -221 -224
49 35 33 22 31 52 62 73 43 28 0 -1 -6 -4 -4 27 30 46 -5 -17 -26 -32 -35 -39 -40 -41 -43 -46 -48 -50 -50 -50 -52 -55 -59 -61 -64 -67 -70 -72 -74 -76 -79 -81 -81 -84 -88 -89 -91 -93 -94 -96 -99 -100 -103 -105 -108 -108 -109 -111 -112 -115 -116 -117 -119 -120 -121 -123 -123 -124 -124 -124 -125 -126 -126 -127 -127 -127 -128 -128 -128 -128 -128 -128 -128 -128 -129 -129 -129 -129 -130 -130 -131 -131 -133 -134 -137 -139 -138 -138 -139 -138 -141 -142 -144 -148 -149 -153 -154 -155 -156 -155 -154 -154 -154 -155 -156 -157 -159 -159 -161 -163 -166 -169 -170 -172 -174 -174 -176 -178 -181 -185 -189 -192 -195 -200 -202 -206 -209 -212 -212 -215 -218 -219 -221
80 72 66 48 28 34 56 78 73 58 6 0 -3 -9 -11 -10 -10 -8 -9 -19 -25 -30 -34 -38 -39 -40 -42 -44 -46 -48 -48 -50 -51 -53 -55 -59 -62 -65 -67 -70 -72 -74 -76 -80 -80 -83 -86 -87 -89 -90 -95 -97 -99 -100 -102 -104 -107 -107 -109 -109 -111 -114 -115 -116 -117 -120 -120 -122 -122 -123 -124 -124 -124 -125 -126 -126 -126 -127 -127 -127 -127 -127 -128 -128 -128 -128 -128 -128 -128 -129 -129 -130 -130 -131 -131 -133 -135 -137 -138 -138 -138 -138 -140 -141 -142 -145 -149 -150 -153 -155 -156 -155 -154 -154 -153 -154 -155 -156 -157 -159 -160 -162 -164 -167 -169 -171 -172 -172 -174 -177 -179 -183 -186 -190 -193 -197 -200 -204 -207 -210 -210 -213 -216 -219 -220
142 107 105 61 34 53 74 60 44 43 27 9 -4 -8 -12 -13 -13 -2 -2 -12 -22 -28 -32 -36 -38 -39 -40 -42 -44 -46 -46 -48 -50 -51 -54 -56 -60 -63 -64 -68 -69 -70 -75 -79 -79 -81 -83 -85 -88 -90 -92 -96 -97 -99 -102 -104 -106 -106 -107 -109 -111 -112 -114 -115 -117 -118 -120 -120 -122 -122 -123 -123 -124 -124 -125 -125 -126 -126 -126 -127 -127 -127 -127 -127 -128 -128 -127 -128 -127 -129 -129 -129 -129 -130 -131 -131 -133 -134 -136 -136 -137 -137 -137 -139 -141 -143 -147 -148 -152 -154 -156 -156 -155 -155 -154 -154 -154 -155 -157 -159 -160 -161 -156 -165 -167 -169 -172 -172 -175 -177 -179 -180 -184 -188 -191 -194 -199 -202 -205 -208 -208 -212 -215 -217 -220
117 92 84 49 43 83 99 58 26 17 17 3 -5 -2 -9 -16 -16 -3 -13 -19 -23 -29 -33 -34 -37 -39 -40 -41 -43 -44 -44 -46 -47 -49 -52 -54 -59 -60 -64 -66 -67 -69 -72 -77 -77 -79 -80 -83 -87 -90 -91 -94 -97 -99 -99 -102 -105 -105 -107 -109 -110 -112 -113 -114 -115 -117 -118 -119 -120 -121 -122 -122 -123 -123 -124 -125 -125 -125 -126 -126 -126 -127 -127 -127 -127 -127 -127 -127 -128 -127 -128 -128 -128 -130 -130 -131 -131 -132 -133 -133 -136 -136 -136 -136 -139 -141 -143 -148 -150 -154 -155 -156 -156 -156 -155 -153 -153 -154 -156 -157 -159 -160 -161 -162 -164 -169 -170 -170 -174 -175 -176 -179 -182 -185 -189 -192 -196 -199 -203 -207 -207 -210 -213 -217 -219
130 102 68 45 59 62 73 42 26 15 12 5 -6 -2 -7 -20 -20 -18 -19 -21 -27 -30 -31 -35 -36 -37 -39 -40 -42 -43 -43 -44 -46 -47 -49 -52 -55 -59 -63 -64 -65 -69 -72 -74 -74 -75 -78 -81 -85 -89 -91 -93 -95 -99 -99 -101 -104 -104 -105 -109 -109 -112 -112 -113 -114 -115 -117 -118 -119 -120 -121 -121 -121 -123 -123 -124 -124 -125 -125 -125 -126 -126 -126 -127 -127 -127 -127 -127 -127 -127 -127 -128 -128 -128 -129 -130 -130 -131 -132 -132 -132 -135 -136 -136 -136 -140 -141 -143 -146 -151 -155 -155 -157 -157 -155 -153 -152 -153 -154 -156 -158 -159 -160 -162 -163 -165 -169 -169 -173 -174 -175 -178 -180 -184 -187 -190 -194 -197 -201 -202 -202 -203 -211 -214 -218
85 67 65 65 95 86 49 30 26 28 32 43 27 -7 -11 -16 -16 -19 -21 -19 -21 -28 -32 -32 -35 -37 -39 -39 -41 -42 -42 -43 -45 -47 -47 -50 -54 -59 -60 -63 -65 -65 -69 -70 -70 -73 -77 -79 -84 -87 -90 -92 -92 -96 -99 -101 -103 -103 -105 -105 -109 -110 -111 -112 -113 -115 -115 -117 -117 -119 -120 -120 -120 -122 -122 -123 -124 -124 -125 -125 -125 -126 -126 -125 -126 -126 -126 -126 -127 -127 -127 -127 -128 -128 -129 -129 -130 -130 -130 -130 -132 -132 -134 -132 -137 -137 -140 -140 -144 -149 -153 -155 -155 -155 -156 -154 -153 -153 -153 -155 -157 -158 -148 -159 -163 -164 -166 -166 -172 -173 -175 -177 -179 -181 -185 -189 -191 -195 -199 -201 -201 -203 -209 -212 -216
63 69 104 112 116 99 61 49 71 38 26 19 10 -2 0 -5 -5 -16 -20 -22 -25 -22 -29 -30 -30 -33 -35 -36 -38 -39 -39 -40 -42 -43 -45 -49 -50 -52 -53 -58 -59 -59 -64 -69 -69 -70 -73 -78 -81 -83 -85 -89 -90 -93 -97 -97 -99 -99 -103 -104 -105 -108 -109 -110 -111 -112 -114 -115 -115 -117 -118 -118 -119 -120 -121 -121 -122 -123 -123 -124 -125 -125 -124 -125 -125 -125 -126 -126 -126 -126 -126 -126 -127 -127 -127 -128 -128 -128 -130 -130 -130 -131 -130 -131 -134 -136 -139 -142 -143 -144 -147 -151 -155 -155 -155 -156 -154 -153 -152 -153 -154 -156 -159 -160 -162 -163 -165 -165 -166 -170 -172 -174 -176 -178 -181 -184 -187 -191 -195 -199 -199 -201 -206 -209 -213
80 97 93 106 122 109 79 88 71 35 20 13 11 5 0 -9 -9 -13 -17 -19 -23 -25 -27 -28 -25 -30 -32 -33 -34 -35 -35 -38 -40 -40 -40 -44 -48 -50 -50 -54 -59 -60 -62 -67 -67 -69 -73 -75 -79 -81 -84 -87 -89 -91 -94 -95 -98 -98 -100 -102 -104 -105 -108 -109 -110 -111 -113 -114 -115 -116 -118 -118 -118 -120 -120 -121 -122 -122 -123 -123 -123 -124 -125 -125 -125 -125 -125 -125 -126 -126 -126 -126 -126 -126 -127 -127 -128 -128 -129 -129 -130 -130 -131 -130 -133 -134 -136 -140 -142 -144 -144 -149 -152 -152 -154 -156 -155 -153 -152 -152 -154 -154 -159 -159 -161 -162 -164 -164 -167 -169 -170 -173 -175 -176 -180 -182 -186 -189 -193 -196 -196 -199 -204 -208 -210
122 128 133 100 83 109 94 68 34 27 29 21 31 24 0 -4 -4 0 -3 -16 -20 -20 -22 -26 -29 -29 -29 -29 -32 -30 -30 -29 -31 -36 -38 -40 -43 -47 -50 -53 -55 -59 -63 -66 -66 -67 -72 -75 -79 -80 -84 -84 -86 -89 -92 -93 -95 -95 -97 -100 -102 -103 -104 -107 -109 -110 -112 -113 -115 -116 -117 -117 -118 -119 -120 -121 -122 -122 -122 -123 -123 -124 -124 -124 -125 -125 -125 -125 -125 -125 -125 -125 -126 -126 -126 -127 -126 -128 -128 -128 -129 -129 -130 -130 -131 -133 -134 -136 -140 -143 -145 -148 -151 -151 -152 -155 -156 -153 -152 -152 -154 -155 -156 -158 -160 -162 -165 -165 -166 -167 -169 -171 -174 -176 -178 -180 -184 -187 -191 -194 -194 -198 -201 -204 -209
204 178 148 101 73 87 101 46 40 67 81 56 51 30 13 6 -1 -6 -1 -7 -10 -19 -22 -24 -26 -23 -24 -26 -28 -27 -27 -21 -25 -30 -30 -34 -37 -43 -45 -49 -52 -58 -60 -60 -60 -66 -69 -71 -75 -79 -81 -83 -84 -85 -89 -90 -92 -92 -95 -99 -100 -101 -104 -106 -107 -108 -110 -112 -113 -114 -116 -116 -118 -119 -120 -121 -121 -122 -122 -122 -123 -123 -124 -124 -124 -124 -125 -124 -125 -125 -125 -125 -125 -125 -126 -126 -127 -127 -126 -126 -127 -128 -129 -130 -130 -131 -132 -134 -138 -141 -142 -147 -150 -150 -152 -152 -156 -154 -152 -152 -153 -154 -156 -158 -159 -162 -164 -164 -165 -166 -168 -170 -173 -175 -177 -179 -182 -185 -190 -193 -193 -196 -201 -204 -208
189 146 120 109 100 83 60 58 84 76 66 50 34 43 59 61 54 38 -9 -4 -14 -17 -20 -21 -23 -23 -18 -22 -20 -18 -18 -6 -9 -12 -10 -9 -13 -31 -40 -39 -47 -50 -53 -58 -58 -63 -67 -69 -73 -76 -79 -80 -82 -84 -85 -88 -91 -91 -95 -96 -98 -100 -104 -105 -106 -108 -110 -111 -112 -113 -114 -114 -116 -118 -120 -120 -120 -121 -122 -122 -122 -122 -123 -123 -123 -123 -124 -124 -124 -125 -125 -125 -125 -125 -124 -125 -126 -125 -117 -117 -127 -123 -126 -121 -129 -130 -131 -132 -135 -136 -142 -142 -150 -150 -150 -152 -152 -154 -152 -153 -152 -155 -155 -156 -160 -162 -163 -163 -164 -165 -166 -169 -172 -174 -176 -178 -181 -184 -187 -191 -191 -194 -198 -202 -205
214 192 152 113 90 68 58 85 122 93 60 61 75 56 35 22 24 20 16 -4 -13 -15 -17 -20 -20 -20 -19 -15 -5 -4 -4 -4 1 -4 -10 -20 0 -25 -40 -42 -43 -49 -49 -59 -59 -63 -65 -69 -69 -74 -76 -79 -81 -82 -84 -86 -90 -90 -93 -95 -97 -100 -103 -105 -107 -107 -110 -111 -111 -112 -114 -114 -115 -117 -118 -118 -120 -120 -120 -121 -121 -122 -122 -123 -123 -123 -123 -124 -124 -124 -124 -124 -125 -124 -124 -124 -125 -125 -125 -125 -126 -116 -112 -123 -127 -124 -129 -131 -132 -135 -138 -144 -149 -149 -151 -151 -152 -150 -151 -152 -153 -156 -155 -158 -160 -161 -163 -163 -164 -165 -166 -167 -170 -172 -174 -177 -179 -182 -186 -190 -190 -192 -196 -200 -202
242 194 151 114 102 114 115 112 84 71 72 57 46 40 40 11 -1 -4 -7 -10 -11 -9 -11 -16 -13 -17 -16 -6 -3 2 6 5 0 -4 8 0 -10 -21 -36 -40 -37 -44 -49 -54 -54 -59 -63 -66 -69 -73 -75 -77 -79 -81 -83 -85 -87 -87 -91 -94 -97 -99 -102 -104 -106 -108 -109 -112 -112 -113 -114 -114 -116 -117 -118 -118 -118 -119 -120 -120 -120 -121 -121 -121 -122 -122 -123 -123 -124 -124 -123 -124 -124 -125 -123 -124 -123 -124 -124 -124 -124 -120 -122 -120 -122 -117 -115 -112 -129 -133 -139 -143 -146 -146 -151 -151 -150 -149 -149 -152 -153 -155 -156 -157 -159 -160 -163 -163 -164 -166 -166 -168 -169 -171 -174 -176 -178 -181 -184 -188 -188 -191 -195 -199 -203
222 186 172 178 170 193 155 115 93 90 78 95 89 32 18 18 -3 0 -3 -3 0 -1 -3 -2 -7 -8 -8 -5 -2 24 17 13 0 -2 0 -15 -13 -25 -30 -36 -40 -39 -48 -52 -52 -59 -60 -62 -65 -69 -69 -73 -76 -78 -80 -83 -86 -86 -88 -91 -94 -97 -100 -102 -102 -104 -107 -108 -109 -111 -113 -113 -113 -114 -117 -116 -116 -117 -118 -118 -119 -119 -120 -120 -120 -120 -121 -121 -122 -122 -122 -123 -123 -122 -122 -121 -121 -118 -121 -121 -115 -103 -114 -116 -114 -111 -104 -106 -123 -129 -135 -139 -142 -142 -149 -152 -151 -150 -148 -150 -151 -154 -154 -156 -158 -160 -161 -161 -163 -165 -167 -167 -167 -169 -171 -174 -176 -178 -181 -185 -185 -189 -192 -196 -200
283 292 254 288 268 208 176 161 140 141 116 79 42 40 39 16 15 10 7 6 6 6 29 -1 -5 -5 -1 -2 -1 2 23 14 -5 -10 -5 -2 -19 -27 -30 -35 -40 -42 -49 -51 -51 -56 -59 -61 -65 -68 -70 -72 -74 -77 -79 -81 -84 -84 -87 -90 -93 -95 -97 -99 -101 -102 -104 -106 -108 -110 -111 -111 -113 -114 -114 -116 -117 -117 -118 -118 -118 -118 -118 -119 -120 -120 -120 -121 -120 -121 -122 -121 -122 -121 -121 -120 -120 -120 -119 -119 -115 -99 -108 -113 -110 -108 -106 -115 -121 -118 -133 -139 -141 -141 -149 -153 -152 -149 -147 -150 -150 -153 -154 -156 -157 -159 -161 -161 -164 -165 -166 -168 -168 -168 -170 -173 -176 -178 -180 -183 -183 -187 -190 -199 -199
281 320 349 385 378 317 256 212 143 100 73 48 61 59 56 18 24 39 46 72 45 39 22 7 -1 -9 0 0 2 18 13 0 -8 -10 -10 -6 -20 -28 -31 -36 -40 -43 -44 -49 -49 -54 -56 -59 -64 -67 -69 -71 -73 -75 -78 -80 -83 -83 -86 -89 -92 -93 -96 -97 -99 -101 -102 -106 -107 -107 -109 -109 -111 -112 -113 -110 -113 -116 -117 -117 -118 -117 -118 -118 -118 -118 -118 -120 -120 -120 -120 -121 -120 -120 -120 -120 -118 -118 -116 -116 -110 -94 -103 -108 -94 -85 -104 -109 -119 -126 -133 -134 -138 -138 -142 -149 -153 -149 -146 -149 -150 -152 -154 -155 -156 -159 -160 -160 -162 -164 -165 -168 -168 -169 -169 -172 -175 -177 -180 -182 -182 -185 -189 -193 -197
348 360 393 382 393 342 271 213 136 71 48 92 131 80 40 15 25 56 66 81 63 32 20 33 13 8 8 45 25 15 8 -2 -7 -11 -11 -13 -18 -25 -33 -37 -39 -41 -44 -48 -48 -52 -55 -59 -61 -64 -67 -70 -72 -74 -76 -79 -82 -82 -84 -88 -90 -92 -94 -96 -99 -100 -101 -102 -105 -107 -108 -108 -109 -111 -110 -110 -111 -115 -116 -116 -117 -116 -117 -117 -117 -117 -118 -118 -119 -120 -119 -120 -120 -120 -119 -118 -118 -117 -116 -116 -111 -102 -100 -93 -46 -33 -83 -106 -112 -127 -132 -133 -135 -135 -143 -150 -151 -149 -146 -149 -149 -151 -153 -155 -156 -158 -160 -160 -161 -162 -165 -167 -167 -168 -169 -171 -174 -178 -181 -181 -181 -184 -188 -191 -195
397 402 373 338 328 315 268 182 108 101 76 108 131 99 45 28 25 21 30 44 52 34 38 96 143 118 61 35 25 22 3 0 -8 -11 -13 -15 -18 -25 -32 -37 -39 -42 -46 -49 -49 -51 -53 -57 -59 -61 -65 -68 -71 -73 -75 -77 -80 -80 -82 -86 -88 -90 -92 -95 -97 -98 -100 -101 -101 -103 -107 -107 -109 -109 -110 -110 -112 -114 -115 -115 -116 -115 -116 -116 -116 -116 -117 -117 -117 -118 -118 -118 -117 -118 -118 -116 -116 -116 -115 -115 -111 -109 -97 -67 -11 76 -60 -106 -118 -117 -122 -131 -139 -139 -147 -154 -150 -148 -146 -145 -148 -150 -153 -154 -155 -157 -159 -159 -160 -162 -165 -166 -166 -167 -168 -170 -173 -179 -181 -180 -180 -183 -187 -190 -194
328 318 291 262 260 294 250 159 136 130 104 141 156 112 74 89 75 48 27 29 43 63 52 73 92 76 47 32 58 47 19 -3 -5 -8 -12 -15 -18 -22 -30 -35 -39 -41 -44 -47 -47 -48 -52 -54 -56 -60 -63 -67 -70 -72 -74 -75 -79 -79 -82 -85 -87 -89 -91 -93 -96 -97 -99 -100 -101 -102 -104 -104 -107 -108 -110 -109 -111 -113 -114 -114 -115 -115 -115 -115 -115 -115 -115 -116 -115 -116 -117 -116 -116 -116 -116 -116 -115 -114 -114 -114 -108 -105 -96 -59 146 141 -32 -86 -93 -100 -108 -110 -131 -131 -142 -152 -149 -146 -144 -143 -147 -150 -154 -154 -154 -156 -158 -158 -160 -161 -164 -166 -166 -167 -168 -170 -172 -177 -179 -179 -179 -182 -185 -190 -193
212 239 225 228 239 242 228 195 179 118 146 186 186 189 150 123 117 56 36 62 55 86 81 77 55 49 66 62 63 54 27 1 0 -5 -10 -13 -16 -19 -25 -32 -36 -39 -41 -44 -44 -45 -50 -53 -56 -59 -61 -65 -69 -72 -74 -76 -78 -78 -80 -85 -86 -88 -90 -92 -93 -96 -97 -98 -100 -101 -102 -102 -103 -106 -108 -109 -111 -111 -112 -114 -114 -114 -114 -114 -115 -115 -114 -114 -114 -116 -116 -116 -115 -116 -115 -116 -115 -114 -112 -112 -108 -103 -86 -59 147 169 -33 -83 -99 -110 -113 -115 -121 -121 -136 -146 -148 -145 -143 -143 -147 -150 -153 -153 -153 -155 -157 -157 -160 -161 -163 -165 -166 -167 -168 -169 -171 -174 -176 -178 -178 -181 -184 -189 -191
169 201 218 209 227 240 260 272 262 195 156 217 208 177 107 67 61 51 62 104 102 137 109 84 80 111 139 99 55 32 23 16 6 1 -5 -6 -10 -14 -20 -30 -32 -35 -39 -40 -40 -45 -48 -50 -55 -57 -60 -64 -67 -70 -74 -76 -78 -78 -79 -82 -85 -87 -89 -91 -92 -94 -96 -97 -99 -100 -101 -101 -102 -105 -107 -109 -110 -112 -112 -113 -114 -113 -114 -114 -114 -114 -114 -114 -113 -114 -114 -115 -114 -115 -114 -114 -113 -113 -110 -110 -108 -103 -94 -74 76 118 -21 -76 -107 -117 -126 -130 -139 -139 -143 -147 -146 -145 -143 -143 -147 -150 -152 -152 -153 -155 -157 -157 -159 -161 -163 -164 -166 -167 -167 -169 -170 -173 -175 -177 -177 -180 -183 -187 -191
148 171 194 210 224 240 270 273 284 283 257 228 170 117 86 77 65 67 112 137 139 114 130 167 145 166 179 115 75 44 42 32 16 14 7 2 -4 -2 -10 -17 -25 -34 -40 -41 -41 -44 -45 -49 -52 -54 -59 -61 -63 -67 -69 -72 -74 -74 -78 -80 -82 -84 -86 -88 -90 -92 -93 -95 -97 -99 -101 -101 -102 -104 -105 -106 -108 -109 -110 -111 -112 -113 -113 -113 -112 -112 -113 -113 -111 -111 -111 -111 -111 -110 -110 -109 -109 -106 -107 -107 -95 -97 -77 -62 -32 -10 -49 -88 -110 -119 -129 -137 -141 -141 -143 -142 -142 -142 -142 -141 -146 -149 -150 -150 -151 -153 -156 -156 -158 -160 -161 -162 -164 -165 -167 -168 -169 -171 -174 -176 -176 -179 -182 -185 -189
169 184 194 209 217 237 246 245 260 296 306 258 177 134 115 131 112 110 168 196 161 155 186 211 200 169 191 150 105 76 64 39 31 37 39 13 4 0 -1 -10 -26 -34 -39 -41 -41 -43 -46 -49 -50 -52 -54 -59 -61 -65 -68 -68 -73 -73 -76 -79 -80 -82 -84 -86 -88 -90 -92 -93 -95 -97 -99 -99 -101 -102 -103 -104 -106 -108 -110 -110 -112 -112 -112 -112 -112 -112 -112 -111 -110 -110 -110 -110 -110 -110 -110 -110 -106 -104 -103 -103 -94 -88 -88 -54 -11 -16 -53 -87 -108 -120 -131 -138 -139 -139 -139 -139 -141 -142 -142 -141 -145 -147 -150 -150 -150 -152 -155 -155 -157 -159 -160 -161 -163 -165 -166 -167 -168 -170 -173 -175 -175 -178 -181 -184 -189
146 146 160 198 228 211 203 235 257 265 291 277 251 200 205 239 223 191 208 224 223 200 197 221 217 224 222 183 129 97 56 55 66 57 33 27 17 0 0 -10 -24 -30 -37 -39 -39 -41 -44 -48 -48 -49 -52 -55 -60 -62 -66 -69 -70 -70 -73 -76 -77 -80 -84 -85 -87 -89 -90 -92 -94 -95 -97 -97 -99 -101 -102 -104 -106 -107 -109 -110 -111 -111 -112 -111 -111 -111 -110 -111 -110 -110 -110 -110 -109 -108 -108 -108 -103 -102 -102 -102 -100 -95 -92 -55 -20 0 -25 -67 -101 -120 -132 -139 -126 -126 -136 -138 -141 -141 -141 -140 -145 -148 -149 -149 -150 -152 -154 -154 -156 -158 -159 -161 -163 -164 -165 -167 -169 -170 -173 -175 -175 -177 -180 -184 -189
135 153 158 159 161 172 214 248 225 203 253 282 246 222 246 274 261 253 252 233 197 142 132 181 226 217 171 152 104 120 126 120 123 93 45 26 19 12 -11 -11 -17 -25 -34 -37 -37 -39 -41 -45 -46 -47 -50 -51 -58 -61 -65 -67 -69 -69 -72 -74 -77 -80 -82 -84 -86 -87 -89 -91 -93 -95 -97 -97 -98 -100 -102 -104 -105 -106 -108 -109 -110 -110 -110 -110 -110 -110 -110 -110 -110 -109 -108 -109 -108 -107 -107 -106 -103 -102 -102 -102 -99 -100 -96 -79 -40 67 -38 -39 -85 -117 -131 -141 -140 -140 -139 -139 -140 -141 -140 -141 -143 -146 -148 -148 -149 -151 -154 -154 -156 -157 -159 -161 -162 -163 -165 -166 -168 -170 -172 -175 -175 -177 -180 -183 -187
140 181 217 219 206 218 223 200 184 182 216 214 197 184 220 237 259 249 209 164 142 92 100 174 193 135 110 132 120 79 82 135 179 117 60 37 20 -4 -10 -10 -9 -20 -30 -33 -33 -36 -40 -42 -42 -42 -49 -52 -55 -60 -63 -66 -68 -68 -70 -73 -75 -79 -81 -83 -85 -86 -88 -91 -92 -94 -95 -95 -97 -99 -100 -102 -104 -105 -106 -107 -108 -109 -109 -109 -110 -110 -110 -110 -110 -109 -108 -108 -107 -107 -107 -106 -105 -103 -103 -103 -101 -104 -100 -73 -22 135 85 -34 -80 -117 -137 -141 -140 -140 -139 -140 -140 -140 -140 -141 -140 -147 -147 -148 -148 -151 -153 -153 -155 -157 -158 -160 -162 -164 -165 -166 -167 -170 -172 -174 -174 -177 -180 -183 -186
194 215 249 276 269 234 199 166 158 163 156 157 159 177 208 225 233 247 209 145 89 66 81 111 122 140 107 68 66 63 62 120 169 145 91 52 35 13 -5 -4 -10 -13 -26 -30 -30 -33 -39 -40 -39 -43 -47 -51 -53 -59 -60 -64 -67 -67 -69 -70 -73 -76 -79 -81 -83 -86 -88 -90 -90 -92 -94 -94 -96 -98 -99 -100 -102 -104 -105 -106 -107 -108 -109 -109 -109 -109 -110 -110 -110 -109 -107 -110 -109 -109 -109 -108 -107 -107 -105 -105 -104 -103 -105 -85 -26 95 -13 -33 -86 -123 -139 -140 -139 -139 -138 -139 -138 -140 -140 -140 -139 -147 -146 -147 -149 -151 -153 -153 -155 -156 -157 -160 -162 -163 -165 -166 -167 -169 -171 -174 -174 -176 -179 -183 -186
236 242 276 309 282 215 162 139 147 151 153 174 175 182 193 203 213 218 207 181 143 73 53 58 72 97 121 89 68 41 44 94 167 189 123 96 61 33 10 2 -5 -5 -20 -27 -27 -32 -37 -39 -39 -42 -45 -48 -51 -55 -59 -61 -65 -65 -67 -69 -73 -76 -79 -81 -82 -85 -88 -90 -90 -92 -93 -93 -95 -97 -98 -100 -101 -103 -104 -105 -107 -108 -108 -108 -109 -109 -110 -109 -110 -109 -110 -110 -110 -111 -112 -112 -110 -111 -109 -109 -108 -109 -106 -102 -66 -20 -34 -75 -114 -126 -139 -137 -136 -136 -137 -140 -138 -139 -138 -136 -139 -146 -145 -146 -148 -150 -153 -153 -154 -156 -158 -160 -161 -163 -165 -166 -167 -169 -171 -173 -173 -176 -179 -182 -185
164 193 241 290 246 187 147 147 166 151 160 168 176 186 195 208 173 171 160 138 130 83 53 41 67 94 91 70 75 48 29 63 122 151 107 75 44 26 25 6 17 -2 -9 -19 -19 -27 -32 -36 -39 -41 -44 -46 -48 -51 -54 -59 -61 -61 -62 -68 -70 -73 -77 -79 -81 -84 -86 -87 -90 -91 -92 -92 -93 -95 -97 -98 -100 -101 -103 -104 -106 -107 -108 -108 -108 -108 -109 -109 -109 -110 -111 -111 -112 -112 -114 -114 -115 -117 -117 -117 -113 -114 -114 -115 -113 -108 -118 -126 -129 -129 -130 -133 -135 -135 -135 -136 -139 -135 -134 -139 -141 -145 -147 -147 -148 -150 -152 -152 -153 -155 -157 -159 -160 -161 -163 -164 -166 -168 -170 -172 -172 -175 -178 -181 -184
181 198 239 288 251 217 183 139 185 186 167 177 184 182 192 187 145 129 123 148 191 146 89 51 39 48 46 55 69 55 25 33 69 85 68 87 56 45 31 24 23 8 -10 -16 -16 -25 -30 -34 -37 -38 -40 -42 -48 -49 -51 -55 -61 -61 -64 -66 -69 -72 -75 -79 -80 -83 -85 -86 -89 -89 -91 -91 -93 -94 -96 -97 -100 -100 -102 -103 -105 -106 -108 -108 -107 -107 -107 -108 -110 -111 -111 -113 -113 -114 -114 -116 -118 -119 -120 -120 -120 -119 -118 -120 -121 -122 -113 -113 -126 -129 -130 -135 -134 -134 -136 -139 -139 -139 -141 -142 -141 -144 -146 -146 -147 -149 -152 -152 -153 -155 -157 -158 -159 -161 -162 -164 -166 -168 -170 -172 -172 -174 -177 -180 -183
199 261 293 287 224 176 150 122 146 180 172 156 155 133 130 128 120 118 126 149 186 174 116 69 35 25 34 45 51 29 20 15 31 32 42 44 39 44 36 33 25 -5 -10 -17 -17 -23 -26 -29 -30 -33 -34 -38 -46 -47 -50 -55 -59 -59 -61 -64 -67 -69 -72 -77 -80 -83 -84 -87 -87 -90 -91 -91 -92 -93 -95 -97 -99 -101 -101 -102 -104 -106 -106 -107 -107 -107 -107 -108 -110 -111 -111 -113 -114 -114 -115 -119 -121 -121 -123 -123 -122 -122 -122 -123 -124 -125 -124 -126 -127 -129 -132 -133 -135 -135 -136 -140 -140 -141 -141 -142 -141 -144 -146 -145 -147 -150 -151 -151 -153 -155 -156 -157 -158 -160 -162 -164 -166 -167 -169 -171 -171 -174 -177 -180 -183
180 241 250 216 169 142 124 115 123 139 137 127 125 111 109 111 111 127 137 138 151 136 90 55 37 28 33 28 24 22 29 28 14 15 28 19 19 27 23 16 23 -7 -13 -9 -9 -14 -14 -11 -11 -25 -31 -36 -45 -46 -49 -52 -59 -59 -60 -64 -65 -69 -72 -77 -80 -81 -84 -84 -86 -89 -90 -90 -92 -93 -95 -97 -99 -99 -99 -102 -103 -104 -105 -105 -107 -107 -107 -107 -110 -111 -112 -114 -115 -116 -117 -117 -120 -122 -123 -123 -124 -123 -123 -124 -125 -125 -126 -127 -128 -130 -131 -134 -136 -136 -137 -140 -140 -141 -141 -141 -142 -140 -143 -144 -147 -149 -151 -151 -153 -154 -155 -157 -158 -160 -162 -164 -165 -167 -169 -171 -171 -174 -176 -180 -182
170 192 197 196 175 152 141 122 111 112 113 113 107 109 122 124 115 119 135 158 155 112 74 57 66 49 50 37 32 41 39 35 25 11 11 12 17 9 7 0 20 21 19 -10 0 -9 -8 -5 -14 -21 -32 -37 -43 -47 -50 -53 -55 -55 -59 -61 -64 -68 -72 -77 -78 -80 -82 -83 -85 -88 -89 -89 -91 -92 -94 -96 -97 -98 -99 -100 -103 -105 -104 -107 -107 -107 -107 -109 -110 -111 -112 -113 -114 -115 -116 -116 -119 -120 -123 -123 -124 -124 -124 -124 -125 -126 -127 -127 -130 -131 -133 -134 -135 -135 -136 -139 -140 -140 -141 -141 -142 -141 -144 -146 -146 -149 -151 -151 -152 -153 -155 -156 -158 -160 -161 -163 -165 -167 -168 -171 -171 -173 -176 -179 -182
129 152 168 181 192 183 144 111 110 114 118 107 114 123 119 128 135 126 120 132 131 116 113 106 95 59 53 36 22 18 22 11 10 8 14 0 9 6 0 2 9 -2 26 0 0 -10 -10 -9 -20 -26 -33 -38 -42 -47 -48 -51 -56 -56 -58 -61 -64 -69 -72 -74 -76 -78 -79 -82 -84 -86 -89 -89 -90 -91 -92 -93 -95 -96 -97 -99 -102 -104 -104 -104 -106 -106 -109 -110 -110 -111 -112 -112 -113 -114 -115 -116 -116 -119 -121 -121 -124 -124 -125 -125 -127 -128 -128 -129 -130 -132 -133 -134 -135 -135 -136 -139 -140 -140 -140 -140 -140 -139 -145 -145 -145 -149 -151 -151 -151 -153 -155 -156 -157 -159 -161 -163 -165 -167 -168 -171 -171 -173 -176 -179 -182
130 130 145 170 180 191 155 111 105 106 103 104 107 113 122 122 139 152 128 136 158 157 148 108 82 80 61 37 26 25 16 24 14 20 25 13 9 4 3 7 -4 -5 0 -9 -9 -15 -15 -14 -20 -27 -33 -38 -41 -45 -49 -53 -57 -57 -59 -61 -64 -69 -70 -72 -73 -75 -77 -80 -83 -87 -89 -89 -90 -89 -91 -92 -93 -97 -96 -99 -101 -102 -104 -105 -107 -107 -109 -110 -111 -112 -112 -112 -113 -114 -115 -116 -117 -117 -119 -119 -121 -124 -124 -126 -127 -129 -130 -130 -130 -132 -131 -134 -135 -135 -136 -139 -139 -140 -140 -137 -137 -138 -146 -145 -145 -148 -150 -150 -151 -153 -154 -156 -157 -158 -161 -163 -165 -167 -168 -170 -170 -173 -175 -178 -181
158 163 159 164 162 136 112 104 102 103 103 108 116 122 139 135 129 134 140 138 140 145 143 130 104 71 47 32 28 34 40 33 22 42 37 23 9 10 6 5 -5 -9 -6 -10 -10 -20 -20 -18 -20 -27 -33 -37 -40 -42 -46 -52 -56 -56 -59 -60 -62 -64 -67 -69 -70 -73 -77 -79 -84 -84 -87 -87 -88 -89 -90 -92 -93 -98 -100 -99 -100 -102 -103 -106 -107 -107 -109 -110 -111 -111 -112 -113 -114 -114 -117 -117 -117 -117 -117 -117 -119 -122 -124 -125 -126 -126 -124 -130 -132 -131 -134 -134 -135 -135 -135 -139 -139 -139 -139 -137 -140 -144 -145 -145 -144 -148 -149 -149 -150 -153 -154 -156 -156 -158 -161 -163 -165 -166 -168 -170 -170 -173 -175 -177 -181
124 126 121 126 110 105 107 117 113 113 110 107 122 138 150 159 139 119 119 130 139 135 151 145 108 85 54 54 74 93 69 36 46 34 25 15 18 21 10 -2 -5 -7 -13 -18 -18 -20 -20 -20 -23 -28 -30 -36 -40 -43 -48 -49 -48 -48 -50 -53 -59 -61 -62 -65 -69 -70 -74 -79 -80 -81 -82 -82 -84 -86 -89 -92 -94 -96 -98 -98 -100 -103 -107 -108 -108 -108 -107 -110 -110 -111 -112 -113 -114 -115 -116 -115 -119 -118 -117 -117 -118 -120 -122 -126 -127 -130 -131 -132 -124 -133 -134 -133 -133 -133 -137 -138 -138 -137 -138 -139 -142 -143 -143 -143 -146 -147 -149 -149 -150 -152 -153 -155 -156 -158 -159 -162 -163 -165 -167 -170 -170 -171 -174 -177 -180
99 100 99 99 100 100 107 138 146 130 117 114 125 135 141 133 122 123 118 123 136 143 151 148 113 87 91 102 120 114 81 47 51 40 24 20 43 52 22 0 -5 -5 -13 -17 -17 -20 -21 -21 -21 -29 -33 -37 -40 -41 -43 -46 -43 -43 -49 -53 -58 -60 -63 -65 -67 -70 -74 -76 -76 -79 -81 -81 -82 -85 -89 -90 -91 -94 -97 -100 -100 -102 -105 -107 -107 -107 -105 -108 -110 -110 -111 -112 -113 -114 -115 -114 -114 -116 -117 -117 -118 -119 -120 -122 -126 -130 -132 -133 -133 -133 -134 -132 -135 -135 -137 -138 -138 -138 -136 -141 -142 -141 -141 -143 -145 -147 -149 -149 -150 -152 -153 -154 -155 -157 -159 -161 -163 -165 -166 -169 -169 -171 -174 -176 -180
99 104 103 120 125 117 117 115 141 156 146 143 150 160 147 128 122 128 128 129 145 166 174 177 130 107 132 157 158 99 78 73 59 38 22 23 29 54 56 33 -3 -8 -12 -16 -16 -19 -21 -22 -24 -30 -32 -36 -38 -39 -39 -42 -42 -42 -49 -52 -57 -59 -61 -66 -69 -70 -72 -75 -77 -78 -79 -79 -82 -85 -87 -89 -90 -93 -98 -100 -102 -104 -104 -104 -106 -106 -106 -107 -109 -110 -110 -111 -112 -112 -113 -115 -112 -112 -114 -114 -114 -116 -118 -120 -125 -129 -133 -135 -134 -134 -134 -135 -136 -136 -137 -137 -138 -138 -138 -139 -141 -141 -142 -143 -143 -146 -148 -148 -148 -151 -152 -153 -155 -156 -159 -161 -163 -164 -166 -168 -168 -171 -173 -176 -179
106 126 113 125 132 151 152 125 149 166 166 172 173 172 151 131 129 139 145 135 138 157 184 176 169 166 176 176 186 173 135 101 63 35 27 35 44 61 38 29 0 -7 -10 -14 -14 -18 -21 -23 -27 -29 -30 -33 -35 -36 -38 -40 -44 -44 -48 -53 -59 -61 -62 -65 -66 -70 -72 -74 -76 -79 -82 -82 -82 -84 -86 -89 -90 -93 -97 -100 -101 -103 -105 -105 -103 -103 -105 -108 -109 -109 -110 -110 -111 -111 -112 -113 -113 -112 -112 -112 -111 -112 -115 -119 -122 -128 -131 -137 -133 -134 -136 -136 -137 -137 -137 -137 -137 -136 -140 -140 -141 -141 -142 -144 -143 -145 -148 -148 -148 -150 -152 -153 -154 -156 -158 -160 -162 -164 -166 -168 -168 -170 -173 -175 -178
101 112 115 113 124 165 173 139 128 136 155 164 172 174 157 143 147 166 161 149 161 173 180 156 135 148 145 109 111 123 112 74 53 41 30 43 49 47 37 38 3 -2 -2 -10 -10 -16 -20 -24 -27 -29 -29 -30 -29 -30 -37 -41 -48 -48 -49 -50 -55 -59 -61 -61 -64 -69 -71 -75 -77 -79 -81 -81 -83 -85 -85 -90 -92 -94 -96 -98 -100 -103 -104 -105 -104 -104 -105 -107 -108 -108 -109 -109 -110 -110 -110 -111 -111 -111 -109 -109 -103 -93 -75 -91 -108 -115 -128 -136 -133 -135 -135 -136 -135 -135 -136 -137 -137 -137 -139 -140 -140 -141 -142 -143 -145 -146 -148 -148 -148 -150 -152 -152 -154 -155 -158 -160 -161 -163 -165 -167 -167 -170 -172 -175 -177
108 125 141 125 122 150 170 170 162 150 149 168 175 175 181 178 163 169 165 148 145 158 161 158 129 94 78 70 70 68 75 79 83 62 40 41 71 52 61 51 31 -1 -3 -8 -8 -13 -19 -22 -27 -28 -25 -23 -20 -29 -35 -40 -45 -45 -44 -49 -54 -56 -59 -60 -62 -67 -71 -74 -78 -80 -81 -81 -83 -86 -87 -90 -91 -93 -94 -96 -100 -103 -105 -105 -104 -104 -105 -106 -107 -108 -108 -108 -109 -109 -108 -110 -110 -109 -97 -97 -97 -66 -20 -61 -91 -106 -124 -136 -135 -134 -134 -136 -136 -136 -136 -136 -136 -138 -139 -139 -140 -140 -139 -143 -145 -146 -147 -147 -147 -150 -151 -153 -154 -154 -157 -159 -161 -163 -165 -167 -167 -170 -172 -174 -177
143 158 138 111 113 128 157 186 190 167 154 175 176 171 183 180 160 150 160 151 139 132 133 132 113 96 119 128 139 154 141 96 91 95 67 52 76 72 74 79 49 -1 -5 -8 -8 -10 -15 -17 -19 -20 -20 -15 -20 -26 -34 -40 -40 -40 -42 -47 -52 -55 -56 -59 -62 -66 -70 -73 -76 -79 -81 -81 -83 -86 -87 -89 -90 -91 -93 -95 -100 -103 -105 -105 -105 -105 -104 -103 -105 -105 -107 -108 -107 -105 -107 -108 -107 -101 -96 -96 -97 -82 -57 -72 -93 -116 -125 -135 -135 -133 -134 -135 -136 -136 -136 -136 -136 -138 -139 -140 -140 -141 -141 -143 -144 -146 -147 -147 -147 -149 -151 -152 -153 -154 -156 -158 -161 -163 -164 -166 -166 -168 -171 -173 -176
169 155 125 111 124 128 150 171 163 170 162 156 164 184 174 162 159 148 130 143 142 128 131 142 143 141 148 152 145 158 163 157 123 92 63 86 102 88 66 69 37 16 0 -4 -4 -1 -5 -3 24 -8 -9 -9 -13 -26 -32 -34 -35 -35 -38 -42 -49 -53 -57 -59 -62 -65 -69 -70 -75 -79 -80 -80 -81 -84 -86 -86 -89 -91 -93 -97 -101 -102 -103 -105 -105 -105 -102 -103 -105 -103 -104 -102 -105 -103 -102 -100 -100 -101 -102 -102 -105 -110 -113 -117 -123 -127 -130 -131 -132 -132 -132 -134 -135 -135 -135 -135 -137 -137 -138 -140 -140 -140 -140 -141 -144 -145 -146 -146 -147 -148 -150 -151 -152 -154 -155 -157 -160 -161 -163 -165 -165 -167 -170 -172 -174
138 143 134 118 131 159 146 140 140 140 145 162 165 176 170 137 131 128 124 139 135 127 127 136 139 145 159 166 176 192 184 172 120 91 92 114 111 74 47 37 41 37 34 21 11 5 5 0 27 21 19 -10 -11 -20 -24 -30 -32 -32 -37 -44 -49 -51 -56 -59 -61 -65 -69 -72 -75 -76 -79 -79 -81 -84 -84 -85 -87 -90 -93 -97 -100 -101 -102 -103 -104 -104 -103 -104 -102 -101 -102 -100 -102 -103 -101 -95 -93 -96 -108 -108 -109 -113 -114 -120 -124 -126 -128 -130 -130 -131 -132 -133 -134 -134 -135 -136 -137 -138 -138 -140 -140 -140 -140 -140 -144 -145 -146 -146 -146 -147 -150 -150 -152 -152 -155 -157 -159 -160 -162 -164 -164 -167 -169 -171 -173
141 162 157 143 120 131 138 120 128 133 121 123 130 130 128 123 126 125 124 125 132 134 128 133 136 153 183 216 232 228 200 134 109 103 139 179 147 94 56 51 82 76 35 19 15 36 52 37 11 8 -2 -6 -10 -3 -16 -26 -30 -30 -36 -44 -49 -52 -54 -58 -61 -65 -66 -70 -73 -73 -78 -78 -80 -84 -84 -84 -86 -90 -93 -97 -99 -100 -101 -101 -101 -101 -101 -102 -102 -101 -100 -100 -99 -100 -98 -83 -67 -73 -103 -103 -109 -113 -120 -121 -122 -125 -129 -128 -129 -130 -132 -133 -134 -134 -134 -135 -137 -137 -138 -139 -140 -138 -137 -142 -143 -144 -145 -145 -145 -148 -150 -150 -152 -153 -154 -156 -158 -160 -161 -164 -164 -166 -168 -170 -173
173 187 159 134 132 123 127 119 122 119 119 130 129 129 129 142 152 138 133 137 147 152 142 137 142 156 169 199 218 194 194 182 205 198 185 184 158 109 97 74 94 70 36 29 31 35 35 20 14 17 14 28 30 -13 -12 -24 -30 -30 -36 -42 -49 -50 -55 -59 -60 -63 -66 -69 -71 -76 -79 -79 -81 -81 -83 -84 -86 -90 -93 -96 -98 -99 -100 -100 -101 -101 -100 -101 -100 -104 -98 -99 -103 -101 -100 -98 -96 -98 -104 -104 -109 -112 -118 -120 -122 -123 -125 -126 -128 -130 -130 -132 -134 -134 -134 -135 -137 -137 -138 -139 -140 -140 -140 -140 -141 -144 -144 -144 -146 -147 -148 -150 -151 -153 -153 -155 -157 -158 -160 -162 -162 -165 -168 -170 -172
182 189 176 170 153 129 140 152 142 120 124 137 162 166 141 127 131 156 154 148 148 158 158 147 150 176 188 181 177 186 210 236 222 197 187 180 171 170 169 152 115 74 59 58 54 44 37 24 33 30 11 14 40 33 -11 -18 -21 -21 -33 -40 -47 -49 -54 -59 -62 -62 -66 -69 -71 -76 -79 -79 -81 -82 -84 -85 -86 -90 -92 -95 -97 -99 -100 -100 -100 -100 -102 -100 -100 -101 -100 -100 -104 -104 -103 -100 -100 -101 -103 -103 -108 -113 -120 -120 -121 -123 -125 -126 -128 -130 -130 -132 -133 -133 -134 -136 -136 -136 -138 -139 -139 -140 -140 -141 -143 -143 -144 -144 -146 -146 -147 -150 -151 -152 -153 -155 -156 -158 -160 -162 -162 -164 -167 -169 -171
159 181 196 180 151 153 190 184 159 130 127 152 182 166 145 144 137 136 154 156 163 171 174 150 152 166 195 183 163 176 204 211 176 162 163 163 172 183 196 185 123 78 64 50 36 32 26 25 39 24 28 25 33 45 22 0 -6 -6 -28 -40 -46 -50 -53 -58 -60 -63 -65 -69 -73 -75 -79 -79 -80 -83 -84 -86 -87 -89 -91 -94 -96 -98 -99 -100 -100 -100 -100 -100 -100 -100 -102 -101 -107 -109 -102 -103 -108 -109 -109 -109 -110 -113 -120 -120 -121 -123 -124 -126 -127 -130 -130 -132 -134 -134 -135 -136 -135 -136 -137 -138 -139 -139 -141 -142 -142 -143 -144 -144 -145 -146 -147 -149 -150 -152 -153 -154 -156 -157 -160 -162 -162 -164 -166 -168 -170
178 191 200 194 166 160 171 193 186 157 128 136 157 172 174 183 159 141 135 143 157 174 178 160 167 188 223 196 171 160 179 174 157 160 173 183 188 196 180 175 145 97 52 36 36 28 41 49 37 37 40 43 41 56 53 35 18 -20 -19 -34 -40 -49 -52 -54 -60 -63 -66 -70 -73 -74 -76 -76 -80 -82 -83 -86 -88 -90 -91 -93 -96 -98 -99 -100 -100 -100 -99 -101 -101 -102 -101 -104 -110 -110 -110 -110 -110 -111 -110 -110 -110 -112 -116 -120 -121 -123 -124 -125 -127 -129 -130 -131 -134 -134 -135 -135 -134 -136 -136 -137 -138 -138 -140 -141 -142 -143 -144 -144 -145 -145 -147 -149 -150 -151 -152 -153 -155 -157 -158 -161 -161 -163 -165 -167 -170
158 178 204 216 185 189 201 200 179 164 139 136 151 164 202 215 178 157 150 148 166 172 185 181 222 244 225 197 179 162 159 155 166 178 182 186 191 177 169 162 176 105 56 43 36 47 65 62 49 59 55 63 50 62 59 45 38 -15 -9 -29 -37 -48 -49 -56 -59 -62 -67 -69 -72 -75 -77 -77 -79 -81 -83 -86 -88 -90 -91 -93 -95 -97 -99 -99 -97 -97 -98 -102 -100 -100 -101 -103 -109 -110 -111 -112 -108 -108 -109 -109 -110 -111 -118 -120 -121 -122 -124 -126 -127 -128 -130 -132 -134 -134 -135 -135 -136 -136 -135 -137 -139 -139 -140 -141 -140 -143 -143 -143 -144 -146 -146 -149 -150 -150 -152 -152 -155 -156 -157 -161 -161 -162 -163 -166 -168
155 178 193 233 224 207 226 213 208 193 160 143 166 175 192 211 223 223 188 160 192 196 225 232 256 265 234 216 191 170 154 157 178 184 170 166 159 148 145 155 149 86 60 53 51 54 77 67 64 70 78 65 65 77 68 55 47 -11 -23 -20 -36 -44 -46 -50 -57 -60 -63 -66 -70 -73 -75 -75 -79 -81 -84 -86 -88 -90 -91 -93 -95 -97 -99 -100 -100 -100 -100 -101 -101 -100 -99 -103 -104 -103 -107 -112 -111 -109 -112 -112 -112 -112 -112 -119 -121 -122 -124 -125 -127 -129 -130 -132 -133 -133 -134 -135 -135 -136 -136 -138 -138 -138 -139 -141 -142 -142 -142 -142 -144 -145 -145 -148 -149 -150 -151 -152 -154 -155 -157 -159 -159 -159 -162 -164 -166
178 206 228 238 232 224 216 214 217 200 167 161 169 161 178 195 224 239 242 181 164 185 221 260 275 245 209 202 193 175 160 155 170 168 162 143 130 144 160 159 113 94 82 70 64 69 84 81 83 83 93 81 74 90 71 49 38 22 0 -16 -36 -44 -48 -51 -55 -59 -61 -64 -69 -72 -74 -74 -78 -81 -83 -86 -88 -90 -92 -94 -96 -98 -99 -100 -100 -100 -100 -101 -100 -100 -99 -100 -101 -103 -108 -109 -108 -109 -113 -113 -115 -116 -113 -119 -122 -123 -124 -125 -127 -127 -130 -131 -133 -133 -134 -134 -135 -135 -136 -137 -137 -137 -138 -141 -141 -141 -141 -141 -144 -144 -146 -147 -148 -150 -150 -151 -153 -154 -156 -157 -157 -158 -160 -162 -164
173 196 227 240 242 224 201 199 213 217 213 211 220 199 216 221 208 235 256 230 182 182 212 250 265 242 221 217 207 190 165 141 136 134 138 135 139 139 153 165 154 149 112 69 55 71 93 93 81 98 108 69 56 82 61 41 38 34 17 -18 -36 -44 -50 -50 -52 -56 -61 -63 -66 -70 -73 -73 -77 -80 -83 -86 -89 -90 -92 -94 -96 -97 -99 -100 -100 -100 -100 -101 -101 -100 -100 -100 -99 -103 -108 -110 -106 -109 -112 -112 -111 -111 -116 -120 -122 -124 -124 -126 -127 -129 -130 -131 -133 -133 -134 -134 -135 -135 -136 -137 -135 -136 -137 -140 -140 -140 -142 -142 -143 -144 -146 -147 -147 -149 -150 -150 -152 -153 -155 -155 -155 -156 -159 -161 -163
198 216 230 261 257 229 206 218 242 236 230 239 246 244 254 264 245 241 244 251 231 207 220 221 242 255 218 191 203 187 161 142 124 123 142 140 152 158 161 161 170 166 106 68 47 43 53 64 76 94 112 75 38 44 42 29 23 -8 -19 -23 -35 -43 -46 -48 -52 -54 -59 -62 -65 -69 -73 -73 -77 -80 -82 -85 -89 -91 -92 -94 -95 -97 -99 -100 -100 -100 -100 -101 -102 -103 -104 -103 -104 -106 -110 -109 -107 -112 -110 -110 -111 -111 -116 -121 -122 -123 -125 -125 -126 -128 -130 -132 -132 -132 -134 -134 -134 -134 -135 -135 -137 -138 -139 -140 -139 -138 -140 -140 -140 -143 -145 -145 -146 -148 -150 -150 -150 -152 -154 -155 -155 -156 -158 -160 -161
201 225 261 274 269 257 228 205 225 232 229 252 238 216 225 240 220 241 256 261 272 255 224 210 226 233 206 188 185 158 135 130 120 129 136 143 156 172 175 178 181 179 142 68 46 33 39 74 84 86 87 79 44 21 32 28 19 -6 -10 -20 -32 -37 -37 -43 -49 -50 -58 -62 -65 -70 -73 -73 -76 -79 -81 -83 -87 -90 -92 -93 -95 -96 -98 -99 -100 -100 -100 -101 -103 -105 -107 -108 -109 -111 -112 -112 -112 -114 -112 -112 -112 -115 -120 -121 -122 -124 -125 -125 -128 -129 -130 -132 -132 -132 -133 -134 -134 -132 -134 -136 -137 -138 -139 -138 -138 -139 -140 -140 -142 -143 -144 -144 -146 -147 -148 -148 -150 -150 -153 -154 -154 -154 -157 -159 -160
205 225 239 227 253 266 226 212 250 227 206 232 201 182 189 198 213 216 229 248 255 235 214 199 204 213 191 172 161 130 130 129 136 151 146 151 162 166 165 169 167 170 153 91 62 40 29 53 59 64 84 78 37 19 16 4 29 21 -2 -7 -26 -31 -32 -36 -45 -48 -54 -60 -64 -68 -71 -71 -75 -78 -79 -82 -86 -89 -91 -92 -94 -95 -97 -99 -100 -100 -100 -101 -103 -106 -108 -110 -110 -111 -112 -113 -114 -114 -114 -114 -114 -117 -119 -120 -122 -124 -124 -125 -127 -129 -130 -131 -132 -132 -133 -134 -134 -133 -135 -135 -136 -138 -138 -138 -139 -139 -140 -140 -143 -143 -143 -143 -145 -145 -148 -148 -149 -150 -150 -152 -152 -153 -155 -157 -159
246 249 233 194 223 260 229 203 192 181 172 172 177 207 242 221 238 248 239 226 192 170 182 163 152 169 173 142 116 126 150 153 141 146 148 142 142 145 148 151 155 128 99 103 77 44 23 27 46 72 83 81 43 30 21 -1 -4 -11 -4 -10 -29 -30 -29 -34 -43 -48 -47 -59 -64 -68 -70 -70 -73 -77 -80 -82 -85 -88 -90 -91 -92 -94 -96 -98 -100 -100 -100 -100 -103 -106 -109 -110 -110 -111 -112 -114 -115 -115 -115 -115 -116 -118 -119 -120 -122 -125 -126 -125 -128 -128 -130 -131 -132 -132 -133 -134 -135 -135 -135 -136 -136 -137 -137 -138 -139 -139 -140 -140 -142 -143 -143 -143 -143 -145 -147 -147 -149 -150 -151 -150 -150 -152 -154 -156 -157
219 223 212 179 191 210 191 176 156 163 169 176 184 203 235 225 233 206 176 149 122 106 122 127 96 101 118 139 127 151 155 165 160 154 159 138 89 94 95 88 88 109 83 78 63 36 31 23 20 32 61 82 53 35 28 19 0 22 -10 -12 -15 -20 -26 -34 -40 -46 -52 -57 -62 -66 -69 -69 -71 -75 -78 -80 -83 -85 -88 -90 -90 -92 -94 -95 -97 -97 -98 -99 -101 -105 -109 -110 -111 -112 -113 -115 -116 -117 -118 -118 -119 -120 -120 -120 -122 -124 -125 -126 -127 -128 -129 -130 -131 -131 -132 -133 -134 -135 -135 -136 -135 -137 -135 -136 -137 -140 -141 -141 -141 -142 -143 -143 -144 -145 -145 -146 -147 -147 -150 -150 -150 -151 -152 -154 -155
170 185 199 174 162 164 154 164 171 186 194 204 216 217 252 268 261 251 243 212 157 115 78 85 90 118 95 115 120 157 155 157 136 107 102 101 75 64 70 66 94 107 84 54 34 19 39 30 8 16 28 36 39 51 39 26 34 32 -7 -3 -8 -15 -26 -35 -43 -48 -53 -58 -60 -64 -68 -68 -70 -74 -77 -80 -82 -84 -87 -89 -90 -91 -93 -94 -96 -96 -97 -98 -100 -104 -108 -110 -110 -112 -114 -115 -117 -118 -119 -119 -120 -120 -119 -118 -119 -123 -124 -125 -127 -127 -129 -129 -130 -130 -131 -132 -133 -134 -135 -136 -136 -136 -136 -137 -136 -138 -140 -140 -141 -142 -142 -143 -143 -144 -145 -146 -147 -147 -149 -150 -150 -151 -150 -152 -153
139 183 184 151 145 161 187 229 222 227 203 195 198 204 234 246 209 196 204 206 187 145 87 118 150 152 113 117 112 139 127 111 99 59 45 60 58 39 46 62 74 70 51 27 16 29 44 47 24 8 12 15 28 60 60 46 56 45 -7 -6 -10 -19 -30 -37 -43 -48 -52 -58 -61 -64 -67 -67 -70 -73 -77 -80 -81 -83 -86 -88 -90 -91 -92 -93 -95 -95 -97 -98 -100 -102 -105 -108 -110 -112 -114 -116 -117 -119 -120 -120 -120 -120 -119 -116 -115 -119 -125 -125 -126 -127 -128 -129 -130 -130 -131 -132 -133 -134 -134 -135 -136 -134 -134 -136 -137 -139 -140 -140 -140 -140 -141 -142 -143 -144 -144 -146 -147 -147 -148 -149 -149 -150 -149 -149 -152
130 136 165 144 142 196 229 231 252 236 205 184 192 203 201 184 170 159 152 166 151 130 79 118 165 156 124 102 80 82 69 65 52 31 21 30 21 20 39 42 49 36 28 16 11 21 36 27 13 0 6 7 0 37 31 23 53 62 26 -11 -20 -26 -30 -37 -42 -47 -50 -57 -61 -63 -66 -66 -69 -72 -75 -78 -80 -82 -85 -87 -89 -90 -91 -93 -94 -94 -96 -98 -100 -100 -103 -107 -110 -112 -114 -116 -117 -119 -119 -119 -120 -120 -119 -117 -115 -123 -124 -125 -125 -127 -128 -129 -130 -130 -130 -131 -132 -134 -135 -135 -136 -137 -137 -135 -137 -138 -140 -140 -140 -141 -142 -142 -143 -144 -144 -146 -146 -146 -148 -149 -149 -149 -149 -150 -152
127 122 143 130 143 191 218 199 208 203 194 184 216 234 189 141 129 149 142 140 114 87 74 121 116 100 82 69 52 39 23 17 12 18 19 34 15 30 26 29 37 27 19 17 14 12 13 8 7 -3 6 1 -2 5 0 1 34 45 -8 -9 -25 -30 -32 -37 -41 -44 -48 -55 -60 -61 -64 -64 -67 -70 -73 -77 -80 -81 -83 -86 -88 -90 -91 -93 -94 -94 -96 -98 -99 -100 -101 -106 -110 -113 -114 -116 -117 -118 -119 -119 -120 -120 -120 -120 -120 -122 -122 -124 -125 -126 -127 -128 -130 -130 -130 -131 -132 -133 -134 -134 -135 -136 -137 -137 -137 -138 -139 -139 -140 -141 -142 -141 -142 -144 -144 -145 -145 -147 -147 -148 -148 -149 -149 -150 -151
126 121 124 125 150 193 192 184 184 172 177 191 211 193 141 129 125 129 133 144 106 60 85 94 89 64 42 58 51 37 46 29 18 52 51 29 29 12 25 24 23 13 11 19 9 0 4 1 -3 5 -5 -4 -5 -8 -7 -5 21 -7 -10 -15 -24 -30 -34 -38 -40 -40 -44 -50 -54 -60 -62 -62 -65 -68 -72 -76 -79 -80 -82 -85 -88 -90 -91 -92 -94 -94 -96 -97 -98 -99 -102 -106 -110 -112 -114 -115 -116 -118 -118 -118 -119 -120 -120 -120 -120 -121 -122 -123 -125 -125 -127 -128 -129 -129 -130 -131 -132 -132 -133 -134 -135 -135 -136 -136 -137 -137 -139 -139 -140 -140 -141 -142 -142 -142 -144 -146 -146 -146 -147 -147 -147 -148 -149 -150 -151
140 135 132 133 158 187 171 173 176 193 192 195 194 177 127 110 130 152 155 147 126 98 58 53 51 20 12 20 29 34 47 37 40 43 54 64 51 30 25 14 18 0 6 6 7 20 9 10 7 6 -6 -5 -8 -10 -10 -9 -7 -7 -16 -20 -23 -30 -34 -38 -39 -40 -41 -45 -50 -58 -61 -61 -64 -68 -71 -75 -78 -80 -81 -84 -87 -89 -91 -92 -94 -94 -95 -96 -97 -99 -102 -106 -110 -112 -113 -114 -115 -117 -118 -118 -118 -119 -119 -119 -119 -120 -122 -123 -124 -125 -126 -128 -128 -128 -129 -130 -131 -132 -132 -134 -135 -134 -135 -136 -136 -136 -138 -138 -140 -141 -141 -142 -142 -142 -144 -145 -145 -146 -146 -147 -147 -148 -148 -150 -151
146 146 144 147 155 168 183 180 182 182 180 182 196 185 128 107 123 152 152 127 106 94 86 69 39 28 19 29 31 49 98 103 95 64 66 69 57 68 60 31 20 18 9 8 8 16 18 16 15 2 0 -7 -10 -14 -18 -20 -24 -24 -23 -26 -31 -31 -35 -39 -40 -40 -42 -45 -50 -54 -60 -60 -64 -67 -69 -72 -75 -78 -80 -83 -86 -89 -91 -92 -94 -94 -95 -96 -97 -99 -102 -107 -110 -110 -111 -112 -113 -115 -116 -116 -117 -117 -118 -118 -119 -120 -121 -122 -123 -124 -126 -126 -127 -127 -128 -129 -130 -131 -132 -133 -134 -133 -133 -135 -135 -136 -137 -137 -139 -140 -141 -141 -141 -142 -143 -144 -145 -146 -147 -147 -147 -148 -149 -150 -150
180 170 174 187 178 164 168 177 181 164 153 144 161 155 107 104 114 128 125 110 105 103 95 80 57 49 46 56 80 79 94 104 115 102 69 57 52 62 67 36 27 23 14 18 19 24 27 35 57 34 17 0 -6 -13 -18 -22 -25 -25 -26 -29 -31 -34 -37 -40 -41 -42 -45 -48 -51 -55 -60 -60 -64 -67 -69 -71 -74 -77 -80 -83 -86 -89 -91 -92 -93 -93 -95 -97 -98 -100 -103 -108 -110 -110 -110 -111 -112 -114 -115 -115 -116 -117 -117 -118 -119 -120 -120 -121 -122 -123 -125 -125 -127 -127 -127 -129 -130 -131 -131 -133 -134 -134 -135 -135 -136 -136 -137 -137 -138 -139 -140 -141 -141 -142 -142 -144 -145 -145 -146 -145 -145 -147 -149 -150 -150
199 180 183 200 173 138 144 155 145 139 131 133 137 120 97 105 104 129 148 120 108 102 93 73 54 53 60 68 70 77 89 95 96 80 47 47 58 73 65 51 49 31 21 24 21 19 19 27 45 39 24 4 -6 -14 -18 -22 -26 -26 -28 -30 -32 -35 -38 -40 -41 -44 -47 -50 -52 -56 -60 -60 -64 -67 -70 -71 -74 -77 -80 -83 -86 -88 -90 -91 -93 -93 -95 -97 -98 -100 -104 -108 -110 -110 -110 -111 -112 -113 -114 -114 -115 -116 -116 -117 -118 -120 -120 -121 -122 -123 -124 -125 -125 -125 -126 -128 -129 -130 -131 -132 -133 -134 -135 -136 -136 -137 -137 -137 -138 -138 -140 -140 -141 -141 -141 -142 -144 -145 -144 -146 -146 -147 -147 -148 -150
169 158 156 172 158 111 101 114 126 138 168 175 129 110 105 98 95 122 133 117 111 102 88 74 61 62 66 61 52 54 62 63 62 45 45 40 54 64 41 34 36 29 22 17 12 11 18 21 25 27 11 -2 -10 -15 -18 -22 -27 -27 -30 -31 -33 -35 -37 -39 -41 -45 -49 -51 -53 -56 -60 -60 -64 -67 -70 -72 -74 -77 -80 -83 -86 -88 -90 -91 -93 -93 -95 -97 -99 -101 -103 -107 -109 -110 -110 -111 -111 -112 -113 -113 -114 -115 -116 -117 -118 -119 -120 -121 -122 -122 -123 -124 -125 -125 -127 -127 -128 -129 -130 -131 -132 -133 -134 -135 -136 -137 -138 -138 -138 -138 -139 -140 -140 -139 -141 -142 -144 -144 -145 -145 -145 -146 -146 -147 -148
119 117 148 158 150 117 96 94 119 139 130 131 120 115 112 104 91 93 97 91 84 83 92 103 101 83 96 79 69 77 84 80 64 70 74 40 26 33 43 70 66 29 16 13 8 15 18 20 20 13 -1 -7 -10 -14 -18 -22 -27 -27 -30 -32 -34 -36 -38 -39 -42 -46 -50 -51 -54 -57 -60 -60 -63 -66 -69 -71 -74 -77 -80 -83 -86 -88 -90 -92 -93 -93 -95 -97 -99 -100 -103 -106 -109 -110 -110 -111 -111 -112 -113 -113 -114 -115 -116 -117 -118 -119 -120 -120 -121 -122 -123 -124 -124 -124 -126 -126 -127 -128 -130 -130 -131 -132 -133 -134 -136 -136 -137 -137 -137 -138 -139 -140 -140 -140 -141 -142 -143 -143 -144 -145 -145 -146 -146 -147 -148
101 106 114 115 105 108 110 92 100 110 112 120 119 114 107 100 92 85 95 98 95 105 104 120 128 123 125 96 89 94 100 102 84 61 56 53 33 26 47 72 82 64 35 17 10 16 8 18 16 6 8 -5 -9 -12 -18 -22 -26 -26 -30 -33 -35 -36 -38 -39 -42 -46 -49 -51 -54 -57 -59 -59 -61 -65 -68 -71 -73 -77 -80 -83 -85 -88 -90 -92 -93 -93 -95 -97 -99 -100 -102 -105 -108 -110 -110 -110 -111 -112 -112 -112 -113 -114 -115 -116 -117 -118 -119 -120 -121 -121 -123 -123 -125 -125 -125 -126 -127 -128 -128 -129 -130 -131 -132 -134 -135 -136 -136 -136 -136 -137 -138 -139 -140 -140 -141 -141 -142 -143 -143 -144 -144 -145 -146 -147 -148
103 112 113 108 97 91 91 85 90 99 98 101 107 107 102 119 129 117 114 115 102 91 88 96 99 110 120 116 118 105 108 93 68 85 78 62 48 41 47 68 83 90 54 25 22 23 15 11 8 7 8 -5 -8 -12 -17 -20 -25 -25 -30 -33 -35 -37 -39 -40 -42 -45 -49 -51 -53 -56 -58 -58 -60 -63 -67 -70 -72 -76 -80 -82 -85 -88 -90 -91 -92 -92 -94 -96 -98 -100 -101 -103 -107 -109 -110 -110 -111 -111 -112 -112 -112 -114 -115 -116 -117 -118 -119 -119 -120 -121 -121 -122 -123 -123 -124 -125 -126 -127 -127 -129 -130 -130 -131 -133 -134 -134 -135 -135 -136 -137 -136 -138 -140 -140 -140 -141 -141 -142 -143 -144 -144 -144 -145 -145 -146
128 123 133 113 96 90 86 83 82 84 95 108 106 93 92 111 123 119 109 108 101 88 84 80 84 87 87 99 117 99 74 76 101 113 87 67 56 64 75 74 80 95 91 50 34 27 20 13 10 8 8 -5 -8 -12 -16 -20 -25 -25 -30 -32 -34 -37 -38 -40 -41 -45 -49 -50 -52 -55 -57 -57 -59 -61 -65 -68 -71 -75 -79 -81 -83 -87 -90 -90 -91 -91 -93 -95 -97 -99 -100 -102 -106 -109 -110 -111 -111 -111 -111 -111 -112 -114 -115 -116 -116 -117 -118 -119 -120 -120 -121 -122 -122 -122 -124 -124 -125 -126 -127 -128 -129 -130 -131 -132 -133 -134 -135 -135 -135 -136 -137 -137 -139 -140 -140 -140 -140 -141 -142 -143 -143 -144 -145 -146 -147
129 120 120 109 105 96 89 87 83 81 90 108 118 103 91 92 89 88 95 102 91 87 83 81 86 89 93 85 78 97 126 125 125 128 87 74 72 70 81 94 110 105 122 69 33 27 24 29 21 14 15 -3 -8 -12 -15 -20 -25 -25 -29 -31 -34 -36 -38 -39 -40 -43 -47 -50 -52 -54 -56 -56 -58 -60 -62 -66 -70 -73 -76 -79 -82 -85 -88 -89 -91 -91 -92 -94 -95 -97 -98 -100 -105 -110 -112 -112 -112 -111 -111 -111 -112 -114 -114 -115 -116 -116 -117 -118 -119 -119 -120 -121 -122 -122 -123 -124 -125 -125 -126 -127 -128 -128 -130 -131 -132 -133 -134 -134 -134 -135 -136 -137 -138 -139 -139 -140 -140 -141 -141 -143 -143 -143 -144 -145 -145
122 115 97 95 101 100 95 91 83 69 72 95 121 128 105 103 108 106 93 84 84 83 86 96 87 96 111 119 116 134 120 117 117 126 117 116 108 96 106 110 114 132 147 106 53 48 55 45 33 23 16 -1 -7 -10 -15 -20 -24 -24 -28 -31 -34 -35 -36 -38 -40 -42 -46 -50 -52 -53 -54 -54 -57 -59 -62 -66 -70 -72 -75 -78 -81 -84 -87 -89 -91 -91 -93 -94 -94 -96 -97 -100 -104 -109 -111 -112 -111 -111 -111 -111 -113 -114 -114 -114 -115 -116 -117 -118 -120 -120 -121 -122 -123 -123 -123 -124 -124 -125 -125 -126 -126 -127 -129 -130 -131 -133 -133 -133 -133 -135 -136 -136 -138 -138 -138 -140 -140 -140 -141 -142 -142 -143 -143 -143 -144
116 111 96 79 73 84 97 91 66 69 80 109 138 153 135 112 137 148 109 99 104 100 99 103 93 91 114 139 128 114 107 122 117 120 153 172 152 119 111 125 146 136 124 130 113 88 51 37 36 27 20 -1 -5 -10 -14 -19 -22 -22 -26 -30 -32 -32 -32 -35 -38 -42 -46 -49 -51 -52 -53 -53 -56 -60 -62 -66 -69 -71 -72 -76 -80 -82 -85 -88 -90 -90 -93 -93 -94 -95 -97 -99 -102 -106 -108 -110 -109 -111 -111 -111 -112 -113 -114 -115 -115 -116 -118 -119 -119 -120 -121 -121 -122 -122 -122 -123 -123 -124 -125 -126 -125 -127 -129 -130 -130 -131 -131 -131 -133 -134 -135 -136 -137 -137 -138 -139 -140 -140 -141 -141 -141 -142 -143 -143 -144
112 94 81 77 73 70 90 88 50 60 85 103 123 132 124 122 120 132 107 103 113 104 120 115 94 93 111 121 105 98 102 111 120 132 149 163 165 167 147 150 133 99 95 95 103 81 37 28 21 14 15 -2 -8 -10 -13 -18 -21 -21 -21 -23 -27 -26 -28 -32 -37 -42 -45 -48 -50 -51 -52 -52 -55 -60 -60 -64 -67 -70 -69 -73 -77 -80 -83 -84 -86 -86 -92 -93 -93 -94 -96 -99 -100 -101 -102 -108 -109 -111 -112 -112 -112 -112 -113 -114 -115 -116 -117 -118 -118 -119 -120 -121 -121 -121 -122 -122 -123 -123 -124 -125 -127 -128 -129 -129 -130 -130 -130 -130 -132 -132 -134 -135 -136 -137 -138 -138 -140 -140 -140 -140 -140 -142 -142 -143 -144
95 86 68 66 65 56 64 57 32 58 89 88 102 107 105 108 115 136 107 111 129 142 136 111 96 97 99 96 99 113 109 121 133 152 167 196 197 198 198 158 140 119 93 73 86 76 37 28 22 9 8 8 -8 -8 -12 -17 -20 -20 -20 -17 -14 -20 -23 -30 -37 -42 -44 -46 -50 -51 -50 -50 -51 -56 -59 -60 -60 -65 -70 -72 -76 -79 -81 -83 -86 -86 -90 -92 -93 -94 -97 -99 -99 -100 -104 -106 -109 -110 -111 -111 -111 -112 -112 -113 -114 -115 -116 -117 -117 -118 -119 -120 -121 -121 -121 -122 -122 -123 -125 -125 -127 -127 -127 -128 -129 -129 -130 -130 -131 -132 -133 -134 -135 -136 -137 -138 -138 -139 -140 -140 -140 -141 -142 -142 -143
118 77 49 55 53 51 43 46 87 131 115 99 96 94 96 106 120 152 159 159 144 125 119 113 108 104 98 113 121 126 125 138 154 168 192 232 226 170 146 110 105 87 75 92 115 95 56 38 26 12 10 8 9 -6 -10 -16 -20 -20 -17 -20 -19 -20 -22 -30 -34 -35 -40 -42 -43 -48 -49 -49 -50 -52 -53 -50 -50 -60 -68 -72 -76 -79 -80 -82 -84 -84 -87 -92 -93 -94 -96 -99 -100 -102 -104 -107 -109 -110 -111 -111 -111 -111 -113 -113 -114 -114 -115 -116 -117 -117 -118 -119 -119 -119 -121 -121 -123 -124 -125 -125 -125 -125 -126 -127 -128 -129 -129 -129 -130 -131 -133 -133 -134 -135 -136 -137 -138 -138 -139 -140 -140 -140 -141 -142 -143
131 84 47 49 49 48 45 62 129 153 150 140 134 103 94 103 112 153 175 182 147 130 142 135 118 127 114 104 120 144 158 163 147 153 185 208 233 206 143 91 81 63 86 114 143 104 56 33 21 23 16 11 10 -6 -9 -12 -11 -11 -10 -20 -22 -11 -11 -21 -30 -34 -40 -40 -42 -44 -44 -44 -45 -43 -50 -50 -52 -60 -66 -71 -76 -80 -81 -82 -84 -84 -87 -92 -93 -93 -95 -98 -100 -101 -107 -106 -108 -108 -110 -110 -110 -111 -113 -114 -115 -116 -117 -117 -117 -118 -119 -120 -120 -120 -121 -122 -123 -123 -124 -124 -124 -124 -125 -126 -128 -129 -129 -129 -130 -131 -132 -133 -134 -135 -136 -137 -138 -138 -138 -139 -139 -140 -141 -142 -142
153 108 52 42 44 43 41 49 144 183 172 163 119 75 69 100 118 129 126 148 170 182 206 158 126 146 147 115 103 110 130 131 135 153 166 190 215 194 154 94 62 48 93 79 86 99 46 25 37 51 43 29 11 -2 -3 0 -2 -2 0 0 -8 -7 -9 -9 -9 -18 -29 -30 -29 -30 -30 -30 -30 -40 -47 -51 -52 -60 -67 -72 -77 -80 -80 -83 -88 -88 -90 -90 -90 -92 -94 -97 -99 -101 -103 -104 -106 -107 -108 -108 -110 -110 -111 -112 -113 -114 -115 -116 -117 -118 -118 -119 -120 -120 -120 -121 -122 -122 -123 -123 -123 -123 -124 -125 -126 -127 -128 -128 -128 -130 -131 -132 -133 -134 -135 -135 -136 -137 -138 -139 -139 -139 -140 -140 -141
160 127 115 74 34 35 25 50 138 170 149 120 100 66 50 71 85 106 91 121 159 212 241 185 145 181 176 128 120 113 116 152 187 192 180 167 147 135 125 98 71 51 52 62 57 63 53 29 13 0 21 31 17 7 1 20 0 26 0 9 -3 -3 -5 -8 -11 -11 -26 -30 -26 -27 -25 -25 -30 -40 -48 -53 -57 -62 -70 -73 -77 -80 -80 -83 -88 -88 -90 -89 -90 -91 -94 -97 -99 -100 -102 -104 -105 -107 -108 -108 -109 -110 -111 -112 -113 -114 -114 -116 -116 -117 -118 -119 -119 -119 -120 -120 -121 -122 -122 -122 -121 -122 -123 -124 -125 -126 -127 -127 -127 -129 -130 -131 -132 -133 -134 -134 -136 -136 -137 -138 -138 -139 -139 -140 -140
189 157 111 43 20 24 18 44 106 125 133 113 80 69 38 51 87 93 67 109 151 220 228 191 167 196 188 148 157 143 137 146 177 195 182 129 92 79 98 100 103 76 37 33 31 33 34 22 21 9 7 7 6 6 5 3 2 16 15 13 0 4 -1 -8 0 -11 -30 -32 -32 -31 -34 -34 -37 -41 -50 -56 -60 -64 -70 -73 -77 -80 -79 -82 -88 -88 -90 -90 -90 -91 -93 -96 -99 -100 -102 -104 -105 -107 -108 -108 -109 -110 -111 -112 -113 -114 -115 -115 -116 -117 -118 -119 -119 -119 -119 -120 -120 -121 -121 -121 -121 -121 -122 -124 -125 -126 -127 -127 -127 -129 -130 -131 -132 -133 -134 -134 -135 -136 -137 -137 -137 -138 -139 -140 -140
142 110 54 19 14 11 12 36 67 77 91 74 61 69 39 33 52 54 65 103 158 188 226 240 201 247 245 209 198 171 179 158 181 188 182 152 102 62 68 65 75 72 52 39 30 15 20 20 12 5 29 38 37 28 18 28 19 2 1 4 21 23 18 16 -5 -16 -30 -34 -37 -37 -40 -40 -42 -46 -52 -58 -61 -64 -68 -72 -76 -79 -80 -82 -87 -87 -90 -89 -89 -91 -93 -96 -97 -100 -101 -103 -105 -106 -107 -107 -108 -110 -111 -111 -112 -113 -114 -115 -115 -117 -117 -118 -118 -118 -119 -120 -120 -120 -120 -120 -120 -121 -122 -123 -124 -126 -126 -126 -126 -128 -128 -130 -131 -132 -133 -134 -135 -135 -136 -137 -137 -137 -138 -139 -140
90 57 26 13 9 7 7 24 17 38 60 38 41 64 41 16 19 33 69 112 105 133 206 270 284 270 265 238 227 211 198 200 179 191 162 101 84 70 57 56 60 53 46 33 29 23 14 7 5 4 6 45 44 32 16 8 4 2 18 19 19 17 -2 -9 -20 -26 -32 -40 -41 -42 -43 -43 -44 -50 -54 -58 -61 -63 -68 -72 -76 -79 -80 -82 -86 -86 -88 -90 -90 -91 -93 -95 -97 -98 -100 -102 -103 -105 -106 -106 -108 -109 -110 -111 -112 -113 -114 -114 -115 -116 -117 -117 -117 -117 -118 -118 -120 -120 -120 -120 -120 -121 -122 -123 -124 -125 -126 -126 -126 -127 -127 -129 -130 -131 -132 -133 -134 -135 -136 -136 -136 -136 -138 -138 -138
54 38 20 15 13 6 8 10 18 9 15 11 25 55 37 14 31 64 95 94 101 108 167 204 229 238 173 165 201 207 202 205 196 176 118 80 58 48 49 53 38 36 41 39 19 16 14 12 11 4 6 23 37 43 29 14 5 1 0 12 14 18 -3 -11 -25 -31 -35 -42 -43 -44 -46 -46 -45 -50 -55 -57 -59 -62 -67 -72 -75 -78 -80 -82 -84 -84 -87 -89 -90 -91 -92 -95 -96 -97 -100 -101 -103 -104 -105 -105 -107 -108 -109 -110 -111 -112 -113 -114 -114 -115 -116 -116 -117 -117 -118 -118 -119 -120 -120 -120 -120 -121 -121 -122 -124 -125 -125 -125 -126 -128 -128 -129 -130 -131 -132 -132 -133 -134 -134 -135 -135 -136 -137 -137 -138
44 26 20 41 37 19 20 12 10 7 -1 1 16 18 19 31 28 62 66 96 134 145 143 149 204 219 143 141 210 192 165 178 179 167 136 103 72 60 36 31 21 19 20 17 16 13 42 34 26 11 7 28 25 21 33 59 24 11 0 -2 0 18 -2 -11 -23 -30 -37 -42 -44 -46 -49 -49 -51 -52 -53 -56 -59 -62 -67 -72 -75 -78 -80 -80 -82 -82 -84 -87 -90 -91 -92 -95 -96 -97 -100 -101 -102 -104 -105 -105 -106 -107 -108 -109 -110 -111 -112 -113 -114 -115 -115 -116 -117 -117 -117 -118 -119 -120 -120 -120 -120 -120 -121 -122 -123 -124 -125 -125 -125 -126 -126 -128 -129 -130 -131 -132 -132 -133 -134 -134 -134 -135 -136 -136 -137
30 20 30 68 56 36 25 10 6 5 -3 6 -2 3 9 15 27 44 85 119 132 116 100 128 154 186 122 132 187 209 178 134 120 138 151 102 77 49 48 41 29 23 16 23 14 26 33 25 14 14 10 14 19 21 35 38 14 4 -1 -2 14 19 18 11 -21 -33 -40 -41 -44 -48 -50 -50 -50 -50 -51 -56 -62 -64 -66 -70 -74 -77 -79 -80 -81 -81 -82 -84 -88 -90 -91 -93 -95 -96 -98 -100 -101 -102 -104 -104 -105 -106 -107 -108 -109 -110 -111 -112 -112 -113 -114 -115 -115 -115 -116 -116 -117 -118 -119 -120 -120 -120 -121 -121 -122 -123 -124 -124 -124 -125 -126 -126 -126 -127 -129 -130 -130 -132 -133 -133 -133 -134 -135 -135 -136
52 34 40 42 33 13 15 21 28 16 7 5 -1 3 10 41 55 64 90 112 120 87 64 93 96 106 146 193 222 203 180 175 157 111 114 118 99 87 85 54 40 45 36 29 13 31 28 23 19 25 24 22 23 29 33 31 8 6 2 9 15 15 14 -7 -21 -33 -40 -41 -44 -50 -51 -51 -51 -51 -54 -58 -62 -64 -66 -70 -73 -76 -78 -80 -81 -81 -82 -85 -88 -90 -90 -92 -94 -96 -97 -99 -100 -102 -103 -103 -105 -106 -107 -108 -109 -110 -110 -111 -112 -113 -114 -114 -114 -114 -115 -115 -116 -117 -117 -119 -120 -120 -121 -121 -122 -123 -124 -124 -125 -125 -125 -125 -125 -127 -129 -129 -130 -131 -131 -133 -133 -133 -134 -134 -135
45 26 19 14 14 32 49 39 47 14 6 -3 0 25 41 52 61 57 42 70 64 56 69 98 85 145 224 257 245 225 203 191 181 156 91 86 81 87 83 67 62 47 30 18 21 36 49 31 16 26 32 23 23 13 8 11 13 10 27 19 14 14 -16 -19 -26 -33 -38 -40 -44 -50 -51 -51 -51 -52 -56 -60 -61 -63 -66 -70 -73 -75 -77 -79 -81 -81 -82 -84 -87 -89 -90 -91 -94 -94 -96 -98 -100 -101 -103 -103 -104 -105 -106 -107 -108 -109 -110 -111 -111 -112 -113 -114 -114 -114 -114 -114 -115 -115 -116 -118 -119 -120 -120 -121 -121 -122 -124 -124 -125 -124 -124 -125 -125 -126 -128 -128 -130 -130 -132 -132 -132 -132 -133 -134 -134
40 31 22 12 14 38 50 46 37 6 -1 -4 -5 11 27 38 47 52 25 30 43 93 120 166 162 188 219 215 208 213 194 161 159 153 122 81 69 60 58 53 53 44 24 25 29 53 45 27 14 21 31 20 15 18 15 24 25 20 27 30 22 16 14 -20 -28 -32 -36 -40 -44 -47 -51 -51 -51 -53 -56 -59 -61 -62 -64 -67 -72 -75 -77 -79 -81 -81 -82 -84 -86 -88 -89 -90 -93 -95 -95 -97 -99 -100 -102 -102 -103 -104 -105 -106 -107 -109 -110 -110 -111 -112 -113 -113 -112 -112 -113 -114 -114 -115 -115 -116 -118 -119 -120 -120 -121 -121 -122 -122 -123 -122 -123 -124 -124 -126 -127 -127 -129 -130 -131 -132 -132 -133 -133 -133 -134
57 47 38 19 23 48 49 30 8 0 -3 0 -2 -1 3 16 39 42 12 13 50 114 147 150 172 182 160 151 145 175 149 146 128 121 126 121 111 85 60 45 32 32 26 39 36 51 44 28 24 38 25 16 30 29 23 34 33 22 31 38 32 28 -9 -19 -28 -32 -37 -40 -45 -50 -50 -50 -51 -53 -56 -59 -61 -62 -63 -66 -72 -75 -76 -79 -81 -81 -82 -83 -85 -86 -88 -90 -92 -94 -95 -97 -98 -100 -101 -101 -102 -103 -105 -106 -107 -108 -109 -110 -110 -111 -112 -112 -112 -112 -112 -113 -114 -114 -115 -115 -116 -118 -119 -120 -120 -120 -121 -121 -122 -122 -124 -124 -125 -126 -126 -127 -129 -130 -130 -131 -131 -132 -132 -133 -134
53 33 26 25 20 12 9 5 1 -3 -5 -5 -1 -2 1 3 23 12 12 20 30 68 93 95 104 88 94 149 139 96 94 141 144 123 99 91 88 95 77 59 56 57 50 46 29 37 35 44 43 46 26 22 28 42 27 30 46 44 65 72 63 57 33 -14 -28 -33 -38 -40 -45 -49 -50 -50 -51 -53 -56 -59 -61 -62 -64 -68 -72 -74 -76 -78 -80 -80 -81 -83 -84 -85 -87 -89 -91 -92 -94 -96 -97 -99 -100 -100 -101 -103 -104 -105 -106 -107 -108 -109 -110 -111 -111 -111 -111 -111 -112 -113 -114 -114 -115 -115 -115 -117 -119 -120 -120 -120 -121 -121 -122 -123 -124 -124 -125 -126 -126 -128 -128 -129 -130 -130 -130 -131 -132 -132 -133
54 38 39 38 11 4 4 2 -1 -5 -7 -4 -3 -2 17 21 19 -2 -2 6 15 25 27 53 67 56 102 167 164 82 107 132 121 108 110 94 68 44 72 59 54 49 44 34 31 34 31 49 47 31 20 31 26 31 41 36 60 90 131 134 64 30 22 12 -25 -33 -38 -41 -44 -48 -50 -50 -51 -53 -56 -59 -61 -62 -64 -67 -70 -72 -74 -77 -79 -79 -81 -82 -83 -85 -86 -89 -90 -92 -93 -95 -96 -98 -100 -100 -101 -102 -103 -104 -105 -106 -107 -108 -109 -110 -110 -110 -111 -111 -111 -112 -113 -114 -114 -115 -116 -117 -119 -120 -120 -120 -121 -121 -122 -122 -123 -124 -125 -125 -126 -128 -128 -128 -129 -130 -130 -131 -131 -131 -132
87 67 45 19 5 6 3 -1 -1 0 0 0 -1 0 36 39 33 22 0 0 2 9 -1 17 42 71 103 152 109 61 96 115 96 77 78 68 38 19 36 25 20 27 33 30 34 34 30 45 44 29 22 32 41 36 56 83 81 127 179 171 80 27 -4 -17 -26 -33 -37 -42 -45 -47 -50 -50 -52 -54 -56 -59 -60 -61 -62 -64 -68 -70 -72 -73 -76 -76 -79 -81 -83 -84 -85 -87 -89 -90 -92 -94 -95 -96 -98 -98 -100 -101 -102 -103 -104 -105 -106 -107 -108 -109 -110 -110 -110 -110 -111 -111 -112 -113 -114 -115 -116 -117 -118 -119 -120 -120 -120 -120 -121 -122 -122 -123 -123 -124 -124 -126 -127 -127 -128 -128 -128 -129 -130 -130 -131
93 59 30 10 12 5 2 0 0 -5 0 -4 -2 0 31 30 18 -5 -8 -10 -8 -4 0 -1 0 65 114 121 107 54 68 90 59 51 48 30 13 10 8 11 10 0 13 12 38 38 36 58 54 46 36 41 65 76 108 159 143 118 142 146 79 24 -8 -19 -27 -33 -38 -42 -45 -48 -51 -51 -52 -53 -56 -59 -60 -60 -61 -63 -66 -70 -71 -72 -75 -75 -78 -80 -82 -83 -84 -86 -88 -90 -91 -93 -95 -96 -98 -98 -99 -100 -101 -102 -103 -104 -105 -106 -107 -108 -109 -110 -110 -110 -110 -111 -112 -112 -113 -114 -115 -116 -117 -119 -119 -120 -120 -120 -120 -121 -121 -123 -123 -123 -124 -126 -126 -127 -128 -128 -128 -128 -129 -129 -130
72 39 14 5 5 6 4 2 -2 -5 -7 -5 -1 -3 -7 -7 -7 -9 -2 -2 -2 -8 -8 -1 0 39 51 61 62 34 35 47 30 30 40 22 8 -3 -3 0 -1 0 1 7 33 38 33 48 89 107 60 48 86 123 102 106 110 66 45 60 73 45 -12 -19 -27 -33 -38 -42 -45 -48 -50 -50 -51 -52 -54 -58 -60 -60 -60 -62 -64 -67 -70 -72 -74 -74 -77 -80 -81 -82 -83 -85 -87 -89 -90 -92 -94 -95 -96 -96 -98 -99 -100 -102 -102 -103 -104 -106 -107 -107 -108 -110 -110 -110 -110 -111 -111 -112 -113 -114 -115 -116 -117 -118 -119 -119 -120 -120 -120 -121 -122 -122 -123 -123 -125 -126 -126 -126 -127 -127 -127 -128 -128 -128 -130
24 14 13 23 32 35 11 4 1 -3 -5 -2 -4 0 -3 -3 -3 -7 -5 0 -6 -1 -7 -6 -3 0 -1 20 32 32 16 9 13 10 0 -1 -3 -2 0 0 -1 1 3 68 66 57 44 41 50 62 60 46 37 43 32 30 30 25 15 15 22 14 -2 -11 -23 -30 -37 -42 -45 -47 -50 -50 -50 -50 -53 -56 -59 -60 -60 -61 -62 -65 -70 -71 -72 -72 -75 -79 -80 -81 -82 -84 -86 -88 -90 -91 -94 -95 -96 -96 -97 -99 -100 -101 -101 -103 -104 -105 -106 -106 -107 -109 -110 -110 -110 -111 -111 -112 -112 -113 -114 -115 -116 -117 -118 -119 -120 -120 -120 -120 -121 -122 -123 -124 -125 -125 -126 -126 -126 -127 -127 -128 -128 -128 -129
10 10 14 38 49 28 16 10 4 0 0 0 -1 -1 27 -2 -2 -5 -5 0 0 0 -2 -6 -7 -3 0 -2 8 23 26 21 9 6 0 -1 -2 -1 0 31 1 5 9 67 28 22 47 52 52 50 60 65 40 20 9 7 7 7 8 12 13 7 0 -8 -20 -30 -36 -41 -43 -45 -48 -48 -50 -50 -52 -55 -58 -59 -60 -60 -62 -65 -69 -70 -72 -72 -74 -78 -80 -80 -81 -83 -85 -87 -89 -90 -92 -95 -96 -96 -97 -98 -99 -100 -101 -102 -103 -104 -105 -106 -107 -108 -109 -109 -110 -110 -111 -111 -112 -112 -113 -114 -115 -116 -118 -119 -120 -120 -120 -120 -120 -122 -122 -123 -124 -125 -125 -126 -126 -127 -127 -127 -128 -128 -129
12 31 39 43 43 48 53 34 18 17 -4 -4 -1 -4 0 -3 3 -4 -4 -6 0 -7 0 -3 -6 -8 -3 -2 -2 0 0 47 47 28 -6 -6 0 -1 -2 -1 33 67 72 54 22 -2 47 75 59 58 76 113 101 53 23 15 6 6 9 8 8 -2 -7 -14 -20 -28 -34 -40 -41 -43 -46 -46 -48 -50 -51 -53 -56 -57 -59 -60 -61 -64 -68 -70 -71 -71 -74 -77 -79 -80 -81 -82 -84 -86 -88 -90 -91 -94 -95 -95 -96 -97 -98 -99 -100 -101 -102 -103 -104 -105 -106 -107 -109 -109 -110 -110 -111 -111 -111 -112 -113 -113 -114 -116 -117 -118 -119 -119 -120 -120 -120 -122 -122 -123 -124 -124 -125 -126 -125 -126 -126 -127 -126 -126 -128
28 23 49 66 50 59 47 33 17 12 -4 -5 -5 0 -4 4 -4 -5 -5 -6 0 0 -7 -7 -3 -7 -7 -3 -1 -2 -2 0 41 44 29 14 0 -5 -6 -4 21 42 24 23 -4 -3 -2 50 60 85 123 205 178 115 60 25 10 7 7 15 17 -2 -7 -16 -20 -30 -34 -38 -40 -42 -44 -44 -47 -50 -51 -52 -54 -55 -57 -59 -60 -62 -66 -69 -71 -71 -73 -75 -78 -80 -81 -82 -83 -85 -87 -89 -91 -93 -94 -94 -95 -96 -97 -98 -99 -100 -101 -102 -103 -104 -105 -106 -108 -108 -109 -110 -110 -111 -111 -112 -112 -113 -114 -116 -117 -118 -119 -119 -119 -120 -120 -121 -122 -123 -123 -123 -124 -125 -125 -125 -125 -126 -126 -127 -128
48 25 45 77 66 51 40 24 14 0 -4 -6 -2 -6 -5 -5 -5 -5 -5 -5 0 0 0 -4 0 -1 -5 -6 -5 -2 -2 -5 -1 -3 -5 -5 -5 -9 -12 -5 -5 -5 -2 0 0 -7 0 21 44 81 141 203 221 157 80 29 13 6 7 16 18 -1 -7 -15 -22 -27 -32 -35 -39 -41 -43 -43 -45 -48 -51 -52 -53 -54 -56 -59 -60 -62 -64 -68 -70 -70 -72 -74 -77 -79 -80 -81 -83 -84 -86 -88 -90 -92 -94 -94 -95 -95 -97 -97 -98 -100 -100 -101 -102 -103 -104 -105 -107 -107 -108 -109 -110 -110 -111 -112 -112 -113 -114 -115 -116 -118 -119 -119 -119 -120 -121 -122 -123 -123 -123 -124 -124 -125 -125 -125 -125 -126 -126 -127 -127
